; generated by PrusaSlicer 2.2.0+ on 2020-07-21 at 15:19:40 UTC


;
;

;
;
; 

; external perimeters extrusion width = 0.45mm
; perimeters extrusion width = 0.45mm
; infill extrusion width = 0.45mm
; solid infill extrusion width = 0.45mm
; top infill extrusion width = 0.40mm
; first layer extrusion width = 0.42mm

M73 P0 R11
M201 X1250 Y1250 Z400 E5000 ; sets maximum accelerations, mm/sec^2
M203 X180 Y180 Z12 E80 ; sets maximum feedrates, mm/sec
M204 P1250 R1250 T1250 ; sets acceleration (P, T) and retract acceleration (R), mm/sec^2
M205 X8.00 Y8.00 Z2.00 E10.00 ; sets the jerk limits, mm/sec
M205 S0 T0 ; sets the minimum extruding and travel feed rate, mm/sec
M107
G90 ; use absolute coordinates
M83 ; extruder relative mode
M104 S170 ; set extruder temp for bed leveling
M140 S60 ; set bed temp
M109 R170 ; wait for bed leveling temp
M190 S60 ; wait for bed temp
G28 ; home all without mesh bed level
G29 ; mesh bed leveling 
M104 S215 ; set extruder temp
G92 E0.0
G1 Y-2.0 X179 F2400
G1 Z3 F720
M109 S215 ; wait for extruder temp

; intro line
G1 X170 F1000
G1 Z0.2 F720
G1 X110.0 E8.0 F900
M73 P1 R10
G1 X40.0 E10.0 F700
G92 E0.0

M221 S95 ; set flow
G21 ; set units to millimeters
G90 ; use absolute coordinates
M83 ; use relative distances for extrusion
M900 K0.2 ; Filament gcode LA 1.5
; ; Filament gcode LA 1.0
;BEFORE_LAYER_CHANGE
G92 E0.0
;0.2


G1 Z0.200 F9000.000
;AFTER_LAYER_CHANGE
;0.2
G1 E-3.20000 F4200.00000
G1 Z0.400 F9000.000
G1 X82.061 Y83.921
G1 Z0.200
G1 E3.20000 F2400.00000
M204 S800
G1 F1200.000
G1 X82.508 Y83.104 E0.02922
G1 X82.947 Y82.636 E0.02011
G1 X83.472 Y82.267 E0.02011
G1 X84.061 Y82.013 E0.02011
G1 X84.694 Y81.884 E0.02025
G1 X95.004 Y81.869 E0.32327
G1 X96.083 Y82.062 E0.03436
G1 X97.026 Y82.612 E0.03423
G1 X97.725 Y83.457 E0.03436
G1 X98.089 Y84.490 E0.03436
G1 X98.128 Y95.153 E0.33432
G1 X97.942 Y96.071 E0.02936
G1 X97.492 Y96.896 E0.02950
G1 X97.020 Y97.393 E0.02148
G1 X96.447 Y97.777 E0.02161
G1 X95.804 Y98.026 E0.02161
G1 X95.127 Y98.129 E0.02148
G1 X84.834 Y98.127 E0.32274
G1 X83.921 Y97.939 E0.02922
G1 X83.104 Y97.492 E0.02922
G1 X82.607 Y97.020 E0.02148
G1 X82.223 Y96.447 E0.02161
G1 X81.974 Y95.804 E0.02161
G1 X81.871 Y95.127 E0.02148
G1 X81.873 Y84.834 E0.32274
G1 X82.049 Y83.980 E0.02734
M204 S1250
G1 X82.416 Y84.055 F9000.000
M204 S800
G1 F1200.000
G1 X82.833 Y83.300 E0.02707
G1 X83.226 Y82.893 E0.01771
G1 X83.689 Y82.578 E0.01758
G1 X84.207 Y82.362 E0.01758
G1 X84.762 Y82.256 E0.01771
G1 X95.004 Y82.246 E0.32114
G1 X95.959 Y82.418 E0.03044
G1 X96.799 Y82.914 E0.03056
G1 X97.410 Y83.668 E0.03044
G1 X97.724 Y84.591 E0.03056
G1 X97.751 Y95.127 E0.33036
G1 X97.582 Y95.959 E0.02663
G1 X97.167 Y96.700 E0.02663
G1 X96.746 Y97.130 E0.01886
G1 X96.245 Y97.457 E0.01873
G1 X95.682 Y97.668 E0.01886
G1 X95.091 Y97.753 E0.01873
G1 X84.865 Y97.751 E0.32063
G1 X84.037 Y97.580 E0.02651
G1 X83.300 Y97.167 E0.02651
G1 X82.870 Y96.746 E0.01886
G1 X82.543 Y96.245 E0.01873
G1 X82.332 Y95.682 E0.01886
G1 X82.247 Y95.091 E0.01873
G1 X82.249 Y84.865 E0.32063
G1 X82.404 Y84.114 E0.02403
M204 S1250
G1 E-2.24000 F4200.00000
G1 F7200.000
G1 X82.833 Y83.300 E-0.51035
G1 X83.226 Y82.893 E-0.31300
G1 X83.358 Y82.803 E-0.08865
G1 E-0.04800 F4200.00000
G1 Z0.400 F9000.000
G1 X83.896 Y82.895
G1 Z0.200
G1 E3.20000 F2400.00000
M204 S800
G1 F1200.000
G1 X84.824 Y82.629 E0.03024
G1 X95.004 Y82.623 E0.31918
G1 X95.842 Y82.777 E0.02673
G1 X96.569 Y83.215 E0.02661
G1 X97.096 Y83.880 E0.02661
G1 X97.356 Y84.687 E0.02661
G1 X97.375 Y95.103 E0.32657
G1 X97.223 Y95.842 E0.02367
G1 X96.849 Y96.494 E0.02355
G1 X96.486 Y96.856 E0.01609
G1 X96.053 Y97.131 E0.01609
G1 X95.571 Y97.308 E0.01609
G1 X95.062 Y97.376 E0.01609
G1 X84.893 Y97.375 E0.31883
G1 X84.158 Y97.223 E0.02355
G1 X83.506 Y96.849 E0.02355
G1 X83.144 Y96.486 E0.01609
G1 X82.869 Y96.053 E0.01609
G1 X82.692 Y95.571 E0.01609
G1 X82.624 Y95.062 E0.01609
G1 X82.625 Y84.893 E0.31883
G1 X82.777 Y84.158 E0.02355
G1 X83.151 Y83.506 E0.02355
G1 X83.850 Y82.933 E0.02836
M204 S1250
G1 E-2.24000 F4200.00000
G1 F7200.000
G1 X84.824 Y82.629 E-0.56519
G1 X85.450 Y82.629 E-0.34681
G1 E-0.04800 F4200.00000
G1 Z0.400 F9000.000
G1 X85.787 Y85.787
G1 Z0.200
G1 E3.20000 F2400.00000
M204 S800
G1 F1200.000
G1 X94.213 Y85.787 E0.26419
G1 X94.213 Y94.213 E0.26419
G1 X85.787 Y94.213 E0.26419
G1 X85.787 Y85.847 E0.26231
M204 S1250
G1 X85.410 Y85.410 F9000.000
M204 S800
G1 F1200.000
G1 X94.590 Y85.410 E0.28783
G1 X94.590 Y94.590 E0.28783
G1 X85.410 Y94.590 E0.28783
G1 X85.410 Y85.470 E0.28595
M204 S1250
G1 X85.796 Y85.514 F9000.000
G1 E-2.24000 F4200.00000
G1 F7200.000
G1 X87.056 Y85.459 E-0.91200
G1 E-0.04800 F4200.00000
G1 Z0.400 F9000.000
G1 X94.100 Y86.686
G1 Z0.200
G1 E3.20000 F2400.00000
M204 S800
G1 F1200.000
G1 X93.483 Y86.070 E0.02815
G1 X92.934 Y86.070 E0.01773
G1 X93.930 Y87.066 E0.04547
G1 X93.930 Y87.615 E0.01773
G1 X92.385 Y86.070 E0.07055
G1 X91.836 Y86.070 E0.01773
G1 X93.930 Y88.164 E0.09563
G1 X93.930 Y88.713 E0.01773
G1 X91.287 Y86.070 E0.12070
G1 X90.738 Y86.070 E0.01773
G1 X93.930 Y89.262 E0.14578
G1 X93.930 Y89.812 E0.01773
G1 X90.188 Y86.070 E0.17085
G1 X89.639 Y86.070 E0.01773
G1 X93.930 Y90.361 E0.19593
G1 X93.930 Y90.910 E0.01773
G1 X89.090 Y86.070 E0.22100
G1 X88.541 Y86.070 E0.01773
G1 X93.930 Y91.459 E0.24608
G1 X93.930 Y92.008 E0.01773
G1 X87.992 Y86.070 E0.27116
G1 X87.443 Y86.070 E0.01773
G1 X93.930 Y92.557 E0.29623
G1 X93.930 Y93.106 E0.01773
G1 X86.894 Y86.070 E0.32131
G1 X86.344 Y86.070 E0.01773
G1 X93.930 Y93.656 E0.34638
G1 X93.930 Y93.930 E0.00886
G1 X93.655 Y93.930 E0.00887
G1 X86.070 Y86.345 E0.34638
G1 X86.070 Y86.894 E0.01773
G1 X93.106 Y93.930 E0.32130
G1 X92.557 Y93.930 E0.01773
G1 X86.070 Y87.443 E0.29623
G1 X86.070 Y87.992 E0.01773
G1 X92.008 Y93.930 E0.27115
G1 X91.459 Y93.930 E0.01773
G1 X86.070 Y88.541 E0.24607
G1 X86.070 Y89.090 E0.01773
G1 X90.910 Y93.930 E0.22100
G1 X90.361 Y93.930 E0.01773
G1 X86.070 Y89.639 E0.19592
G1 X86.070 Y90.189 E0.01773
G1 X89.811 Y93.930 E0.17085
G1 X89.262 Y93.930 E0.01773
G1 X86.070 Y90.738 E0.14577
G1 X86.070 Y91.287 E0.01773
G1 X88.713 Y93.930 E0.12070
G1 X88.164 Y93.930 E0.01773
G1 X86.070 Y91.836 E0.09562
G1 X86.070 Y92.385 E0.01773
G1 X87.615 Y93.930 E0.07054
G1 X87.066 Y93.930 E0.01773
G1 X86.070 Y92.934 E0.04547
G1 X86.070 Y93.484 E0.01773
G1 X86.686 Y94.100 E0.02814
M204 S1250
M106 S255
;BEFORE_LAYER_CHANGE
G92 E0.0
;0.35


G1 Z0.350 F9000.000
;AFTER_LAYER_CHANGE
;0.35
M104 S210 ; set temperature
G1 E-3.20000 F4200.00000
G1 Z0.550 F9000.000
G1 X83.921 Y97.939
G1 Z0.350
G1 E3.20000 F2400.00000
G1 F1300
G1 X83.104 Y97.492 E0.02254
G1 X82.607 Y97.020 E0.01657
G1 X82.223 Y96.447 E0.01667
G1 X81.974 Y95.804 E0.01667
G1 X81.871 Y95.127 E0.01657
G1 X81.873 Y84.834 E0.24894
G1 X82.061 Y83.921 E0.02254
G1 X82.508 Y83.104 E0.02254
G1 X82.947 Y82.636 E0.01551
G1 X83.472 Y82.267 E0.01551
G1 X84.061 Y82.013 E0.01551
G1 X84.694 Y81.884 E0.01562
G1 X95.004 Y81.869 E0.24935
G1 X96.083 Y82.062 E0.02651
G1 X97.026 Y82.612 E0.02640
G1 X97.725 Y83.457 E0.02651
G1 X98.089 Y84.490 E0.02651
G1 X98.128 Y95.153 E0.25787
G1 X97.942 Y96.071 E0.02265
G1 X97.492 Y96.896 E0.02275
G1 X97.020 Y97.393 E0.01657
G1 X96.447 Y97.777 E0.01667
G1 X95.804 Y98.026 E0.01667
G1 X95.127 Y98.129 E0.01657
G1 X84.834 Y98.127 E0.24894
G1 X83.980 Y97.951 E0.02109
G1 X84.055 Y97.584 F9000.000
G1 F1300
G1 X83.300 Y97.167 E0.02088
G1 X82.870 Y96.746 E0.01455
G1 X82.543 Y96.245 E0.01445
G1 X82.332 Y95.682 E0.01455
G1 X82.247 Y95.091 E0.01445
G1 X82.249 Y84.865 E0.24732
G1 X82.420 Y84.037 E0.02044
G1 X82.833 Y83.300 E0.02044
G1 X83.226 Y82.893 E0.01366
G1 X83.689 Y82.578 E0.01356
G1 X84.207 Y82.362 E0.01356
G1 X84.762 Y82.256 E0.01366
G1 X95.004 Y82.246 E0.24771
G1 X95.959 Y82.418 E0.02348
G1 X96.799 Y82.914 E0.02357
G1 X97.410 Y83.668 E0.02348
G1 X97.724 Y84.591 E0.02357
G1 X97.751 Y95.127 E0.25482
G1 X97.582 Y95.959 E0.02054
G1 X97.167 Y96.700 E0.02054
G1 X96.746 Y97.130 E0.01455
G1 X96.245 Y97.457 E0.01445
G1 X95.682 Y97.668 E0.01455
G1 X95.091 Y97.753 E0.01445
G1 X84.865 Y97.751 E0.24732
G1 X84.114 Y97.596 E0.01853
G1 X84.190 Y97.230 F9000.000
G1 F1300
G1 X83.506 Y96.849 E0.01892
G1 X83.144 Y96.486 E0.01241
G1 X82.869 Y96.053 E0.01241
G1 X82.692 Y95.571 E0.01241
G1 X82.624 Y95.062 E0.01241
G1 X82.625 Y84.893 E0.24593
G1 X82.777 Y84.158 E0.01816
G1 X83.151 Y83.506 E0.01816
G1 X83.896 Y82.895 E0.02333
G1 X84.824 Y82.629 E0.02333
G1 X95.004 Y82.623 E0.24620
G1 X95.842 Y82.777 E0.02062
G1 X96.569 Y83.215 E0.02052
G1 X97.096 Y83.880 E0.02052
G1 X97.356 Y84.687 E0.02052
G1 X97.375 Y95.103 E0.25189
G1 X97.223 Y95.842 E0.01825
G1 X96.849 Y96.494 E0.01816
G1 X96.486 Y96.856 E0.01241
G1 X96.053 Y97.131 E0.01241
G1 X95.571 Y97.308 E0.01241
G1 X95.062 Y97.376 E0.01241
G1 X84.893 Y97.375 E0.24593
G1 X84.249 Y97.242 E0.01592
G1 E-2.24000 F4200.00000
G1 F7200.000
G1 X83.506 Y96.849 E-0.46525
G1 X83.144 Y96.486 E-0.28441
G1 X82.987 Y96.238 E-0.16234
G1 E-0.04800 F4200.00000
G1 Z0.550 F9000.000
G1 X85.643 Y94.357
G1 Z0.350
G1 E3.20000 F2400.00000
M204 S800
G1 F1300
G1 X85.643 Y85.643 E0.22706
G1 X94.357 Y85.643 E0.22706
G1 X94.357 Y94.357 E0.22706
G1 X85.703 Y94.357 E0.22550
M204 S1250
G1 X85.225 Y94.775 F9000.000
M204 S800
G1 F1300
G1 X85.225 Y85.225 E0.24883
G1 X94.775 Y85.225 E0.24883
G1 X94.775 Y94.775 E0.24883
G1 X85.285 Y94.775 E0.24727
M204 S1250
G1 X85.329 Y94.389 F9000.000
G1 E-2.24000 F4200.00000
G1 F7200.000
G1 X85.275 Y93.129 E-0.91200
G1 E-0.04800 F4200.00000
G1 Z0.550 F9000.000
G1 X85.768 Y86.638
G1 Z0.350
G1 E3.20000 F2400.00000
M204 S1000
G1 F1300
G1 X86.450 Y85.956 E0.02582
G1 X87.057 Y85.956 E0.01628
G1 X85.956 Y87.057 E0.04171
G1 X85.956 Y87.665 E0.01628
G1 X87.665 Y85.956 E0.06473
G1 X88.272 Y85.956 E0.01628
G1 X85.956 Y88.272 E0.08775
G1 X85.956 Y88.880 E0.01628
G1 X88.880 Y85.956 E0.11077
G1 X89.487 Y85.956 E0.01628
G1 X85.956 Y89.487 E0.13378
G1 X85.956 Y90.095 E0.01628
G1 X90.095 Y85.956 E0.15680
G1 X90.702 Y85.956 E0.01628
G1 X85.956 Y90.702 E0.17982
G1 X85.956 Y91.310 E0.01628
G1 X91.310 Y85.956 E0.20284
G1 X91.917 Y85.956 E0.01628
G1 X85.956 Y91.917 E0.22586
G1 X85.956 Y92.525 E0.01628
G1 X92.525 Y85.956 E0.24887
G1 X93.132 Y85.956 E0.01628
G1 X85.956 Y93.132 E0.27189
G1 X85.956 Y93.740 E0.01628
G1 X93.740 Y85.956 E0.29491
G1 X94.044 Y85.956 E0.00814
G1 X94.044 Y86.260 E0.00814
G1 X86.260 Y94.044 E0.29491
G1 X86.867 Y94.044 E0.01628
G1 X94.044 Y86.867 E0.27190
G1 X94.044 Y87.475 E0.01628
G1 X87.475 Y94.044 E0.24888
G1 X88.082 Y94.044 E0.01628
G1 X94.044 Y88.082 E0.22586
G1 X94.044 Y88.690 E0.01628
G1 X88.690 Y94.044 E0.20284
G1 X89.298 Y94.044 E0.01628
G1 X94.044 Y89.298 E0.17983
G1 X94.044 Y89.905 E0.01628
G1 X89.905 Y94.044 E0.15681
G1 X90.513 Y94.044 E0.01628
G1 X94.044 Y90.513 E0.13379
G1 X94.044 Y91.120 E0.01628
G1 X91.120 Y94.044 E0.11077
G1 X91.728 Y94.044 E0.01628
G1 X94.044 Y91.728 E0.08775
G1 X94.044 Y92.335 E0.01628
G1 X92.335 Y94.044 E0.06474
G1 X92.943 Y94.044 E0.01628
G1 X94.044 Y92.943 E0.04172
G1 X94.044 Y93.550 E0.01628
G1 X93.362 Y94.232 E0.02582
M204 S1250
;BEFORE_LAYER_CHANGE
G92 E0.0
;0.5


G1 Z0.500 F9000.000
;AFTER_LAYER_CHANGE
;0.5
G1 E-3.20000 F4200.00000
G1 Z0.700 F9000.000
G1 X97.725 Y83.457
G1 Z0.500
G1 E3.20000 F2400.00000
G1 F1305
G1 X98.089 Y84.490 E0.02651
G1 X98.128 Y95.153 E0.25787
G1 X97.942 Y96.071 E0.02265
G1 X97.492 Y96.896 E0.02275
G1 X97.020 Y97.393 E0.01657
G1 X96.447 Y97.777 E0.01667
G1 X95.804 Y98.026 E0.01667
G1 X95.127 Y98.129 E0.01657
G1 X84.834 Y98.127 E0.24894
G1 X83.921 Y97.939 E0.02254
G1 X83.104 Y97.492 E0.02254
G1 X82.607 Y97.020 E0.01657
G1 X82.223 Y96.447 E0.01667
G1 X81.974 Y95.804 E0.01667
G1 X81.871 Y95.127 E0.01657
G1 X81.873 Y84.834 E0.24894
G1 X82.061 Y83.921 E0.02254
G1 X82.508 Y83.104 E0.02254
G1 X82.947 Y82.636 E0.01551
G1 X83.472 Y82.267 E0.01551
G1 X84.061 Y82.013 E0.01551
G1 X84.694 Y81.884 E0.01562
G1 X95.004 Y81.869 E0.24935
G1 X96.083 Y82.062 E0.02651
G1 X97.026 Y82.612 E0.02640
G1 X97.686 Y83.411 E0.02506
G1 X97.394 Y83.648 F9000.000
G1 F1305
G1 X97.724 Y84.591 E0.02416
G1 X97.751 Y95.127 E0.25482
G1 X97.582 Y95.959 E0.02054
G1 X97.167 Y96.700 E0.02054
G1 X96.746 Y97.130 E0.01455
G1 X96.245 Y97.457 E0.01445
G1 X95.682 Y97.668 E0.01455
G1 X95.091 Y97.753 E0.01445
G1 X84.865 Y97.751 E0.24732
G1 X84.037 Y97.580 E0.02044
G1 X83.300 Y97.167 E0.02044
G1 X82.870 Y96.746 E0.01455
G1 X82.543 Y96.245 E0.01445
G1 X82.332 Y95.682 E0.01455
G1 X82.247 Y95.091 E0.01445
G1 X82.249 Y84.865 E0.24732
G1 X82.420 Y84.037 E0.02044
G1 X82.833 Y83.300 E0.02044
G1 X83.226 Y82.893 E0.01366
G1 X83.689 Y82.578 E0.01356
G1 X84.207 Y82.362 E0.01356
G1 X84.762 Y82.256 E0.01366
G1 X95.004 Y82.246 E0.24771
G1 X95.959 Y82.418 E0.02348
G1 X96.799 Y82.914 E0.02357
G1 X97.357 Y83.601 E0.02141
G1 X97.096 Y83.880 F9000.000
G1 F1305
G1 X97.356 Y84.687 E0.02052
G1 X97.375 Y95.103 E0.25189
G1 X97.223 Y95.842 E0.01825
G1 X96.849 Y96.494 E0.01816
G1 X96.486 Y96.856 E0.01241
G1 X96.053 Y97.131 E0.01241
G1 X95.571 Y97.308 E0.01241
G1 X95.062 Y97.376 E0.01241
G1 X84.893 Y97.375 E0.24593
G1 X84.158 Y97.223 E0.01816
G1 X83.506 Y96.849 E0.01816
G1 X83.144 Y96.486 E0.01241
G1 X82.869 Y96.053 E0.01241
G1 X82.692 Y95.571 E0.01241
G1 X82.624 Y95.062 E0.01241
G1 X82.625 Y84.893 E0.24593
G1 X82.777 Y84.158 E0.01816
G1 X83.151 Y83.506 E0.01816
G1 X83.896 Y82.895 E0.02333
G1 X84.824 Y82.629 E0.02333
G1 X95.004 Y82.623 E0.24620
G1 X95.842 Y82.777 E0.02062
G1 X96.569 Y83.215 E0.02052
G1 X97.059 Y83.833 E0.01907
G1 E-2.24000 F4200.00000
G1 F7200.000
G1 X97.356 Y84.687 E-0.50156
G1 X97.358 Y85.428 E-0.41044
G1 E-0.04800 F4200.00000
G1 Z0.700 F9000.000
G1 X94.357 Y85.643
G1 Z0.500
G1 E3.20000 F2400.00000
M204 S800
G1 F1305
G1 X94.357 Y94.357 E0.22706
G1 X85.643 Y94.357 E0.22706
G1 X85.643 Y85.643 E0.22706
M73 P11 R9
G1 X94.297 Y85.643 E0.22550
M204 S1250
G1 X94.775 Y85.225 F9000.000
M204 S800
G1 F1305
G1 X94.775 Y94.775 E0.24883
G1 X85.225 Y94.775 E0.24883
G1 X85.225 Y85.225 E0.24883
G1 X94.715 Y85.225 E0.24727
M204 S1250
G1 X94.671 Y85.611 F9000.000
G1 E-2.24000 F4200.00000
G1 F7200.000
G1 X94.725 Y86.871 E-0.91200
G1 E-0.04800 F4200.00000
G1 Z0.700 F9000.000
G1 X86.638 Y94.232
G1 Z0.500
G1 E3.20000 F2400.00000
M204 S1000
G1 F1305
G1 X85.956 Y93.550 E0.02582
G1 X85.956 Y92.943 E0.01628
G1 X87.057 Y94.044 E0.04171
G1 X87.665 Y94.044 E0.01628
G1 X85.956 Y92.335 E0.06473
G1 X85.956 Y91.728 E0.01628
G1 X88.272 Y94.044 E0.08775
G1 X88.880 Y94.044 E0.01628
G1 X85.956 Y91.120 E0.11077
G1 X85.956 Y90.513 E0.01628
G1 X89.487 Y94.044 E0.13378
G1 X90.095 Y94.044 E0.01628
G1 X85.956 Y89.905 E0.15680
G1 X85.956 Y89.298 E0.01628
G1 X90.702 Y94.044 E0.17982
G1 X91.310 Y94.044 E0.01628
G1 X85.956 Y88.690 E0.20284
G1 X85.956 Y88.083 E0.01628
G1 X91.917 Y94.044 E0.22586
G1 X92.525 Y94.044 E0.01628
G1 X85.956 Y87.475 E0.24887
G1 X85.956 Y86.868 E0.01628
G1 X93.132 Y94.044 E0.27189
G1 X93.740 Y94.044 E0.01628
G1 X85.956 Y86.260 E0.29491
G1 X85.956 Y85.956 E0.00814
G1 X86.260 Y85.956 E0.00814
G1 X94.044 Y93.740 E0.29491
G1 X94.044 Y93.133 E0.01628
G1 X86.867 Y85.956 E0.27190
G1 X87.475 Y85.956 E0.01628
G1 X94.044 Y92.525 E0.24888
G1 X94.044 Y91.918 E0.01628
G1 X88.082 Y85.956 E0.22586
G1 X88.690 Y85.956 E0.01628
G1 X94.044 Y91.310 E0.20284
G1 X94.044 Y90.702 E0.01628
G1 X89.298 Y85.956 E0.17983
G1 X89.905 Y85.956 E0.01628
G1 X94.044 Y90.095 E0.15681
G1 X94.044 Y89.487 E0.01628
G1 X90.513 Y85.956 E0.13379
G1 X91.120 Y85.956 E0.01628
G1 X94.044 Y88.880 E0.11077
G1 X94.044 Y88.272 E0.01628
G1 X91.728 Y85.956 E0.08775
G1 X92.335 Y85.956 E0.01628
G1 X94.044 Y87.665 E0.06474
G1 X94.044 Y87.057 E0.01628
G1 X92.943 Y85.956 E0.04172
G1 X93.550 Y85.956 E0.01628
G1 X94.232 Y86.638 E0.02582
M204 S1250
;BEFORE_LAYER_CHANGE
G92 E0.0
;0.65


G1 Z0.650 F9000.000
;AFTER_LAYER_CHANGE
;0.65
G1 X94.357 Y85.643
M204 S800
G1 F900
G1 X94.357 Y94.357 E0.22706
G1 X85.643 Y94.357 E0.22706
G1 X85.643 Y85.643 E0.22706
G1 X94.297 Y85.643 E0.22550
M204 S1250
G1 X94.775 Y85.225 F9000.000
M204 S800
G1 F900
G1 X94.775 Y94.775 E0.24883
G1 X85.225 Y94.775 E0.24883
G1 X85.225 Y85.225 E0.24883
G1 X94.715 Y85.225 E0.24727
M204 S1250
G1 X94.671 Y85.611 F9000.000
