;FLAVOR:Marlin
;TIME:812
;Filament used: 0.459833m
;Layer height: 0.2
;MINX:81.5
;MINY:101.5
;MINZ:0.2
;MAXX:133.5
;MAXY:133.5
;MAXZ:10
;Generated with Cura_SteamEngine 4.12.1
M140 S50
M105
M190 S50
M104 S200
M105
M109 S200
M82 ;absolute extrusion mode
; Ender 3 Custom Start G-code
G92 E0 ; Reset Extruder
G28 ; Home all axes
G1 Z2.0 F3000 ; Move Z Axis up little to prevent scratching of Heat Bed
G1 X0.1 Y20 Z0.3 F5000.0 ; Move to start position
G1 X0.1 Y200.0 Z0.3 F1500.0 E15 ; Draw the first line
G1 X0.4 Y200.0 Z0.3 F5000.0 ; Move to side a little
G1 X0.4 Y20 Z0.3 F1500.0 E30 ; Draw the second line
G92 E0 ; Reset Extruder
G1 Z2.0 F3000 ; Move Z Axis up little to prevent scratching of Heat Bed
G1 X5 Y20 Z0.3 F5000.0 ; Move over to prevent blob squish
G92 E0
G92 E0
G1 F2700 E-5
;LAYER_COUNT:50
;LAYER:0
M107
G0 F6000 X85.386 Y104.127 Z0.2
;TYPE:SKIRT
G1 F2700 E0
G1 F1200 X86.126 Y103.551 E0.03119
G1 X86.912 Y103.039 E0.06239
G1 X87.739 Y102.597 E0.09358
G1 X88.601 Y102.227 E0.12478
G1 X89.491 Y101.931 E0.15597
G1 X90.403 Y101.713 E0.18716
G1 X91.33 Y101.572 E0.21835
G1 X92.201 Y101.513 E0.24738
G1 X92.522 Y101.504 E0.25806
G1 X92.83 Y101.5 E0.26831
G1 X101.793 Y101.5 E0.56642
G1 X102.664 Y101.511 E0.59539
G1 X102.979 Y101.52 E0.60587
G1 X103.621 Y101.547 E0.62724
G1 X106.259 Y101.622 E0.71502
G1 X108.748 Y101.622 E0.79781
G1 X111.323 Y101.549 E0.88348
G1 X111.68 Y101.531 E0.89537
G1 X111.922 Y101.522 E0.90343
G1 X112.515 Y101.505 E0.92316
G1 X112.83 Y101.5 E0.93364
G1 X121.951 Y101.501 E1.237
G1 X122.649 Y101.511 E1.26022
G1 X123.585 Y101.565 E1.2914
G1 X124.513 Y101.697 E1.32258
G1 X125.427 Y101.909 E1.35379
G1 X126.319 Y102.198 E1.38497
G1 X127.184 Y102.561 E1.41617
G1 X128.014 Y102.997 E1.44736
G1 X128.805 Y103.502 E1.47857
G1 X129.549 Y104.073 E1.50976
G1 X130.242 Y104.705 E1.54096
G1 X130.879 Y105.393 E1.57214
G1 X131.454 Y106.134 E1.60334
G1 X131.965 Y106.92 E1.63452
G1 X132.407 Y107.748 E1.66574
G1 X132.776 Y108.61 E1.69693
G1 X133.071 Y109.5 E1.72811
G1 X133.289 Y110.412 E1.7593
G1 X133.429 Y111.34 E1.79051
G1 X133.487 Y112.201 E1.81921
G1 X133.496 Y112.521 E1.82986
G1 X133.5 Y112.83 E1.84014
G1 X133.499 Y121.9 E2.14181
G1 X133.49 Y122.627 E2.16599
G1 X133.439 Y123.564 E2.1972
G1 X133.307 Y124.492 E2.22838
G1 X133.098 Y125.406 E2.25956
G1 X132.811 Y126.299 E2.29076
G1 X132.449 Y127.165 E2.32198
G1 X132.015 Y127.996 E2.35316
G1 X131.511 Y128.787 E2.38436
G1 X130.942 Y129.532 E2.41554
G1 X130.311 Y130.227 E2.44676
G1 X129.624 Y130.865 E2.47794
G1 X128.885 Y131.442 E2.50912
G1 X128.099 Y131.954 E2.54032
G1 X127.273 Y132.397 E2.5715
G1 X126.411 Y132.769 E2.60272
G1 X125.522 Y133.065 E2.63389
G1 X124.61 Y133.285 E2.66509
G1 X123.683 Y133.426 E2.69628
G1 X122.799 Y133.487 E2.72575
G1 X122.478 Y133.496 E2.73643
G1 X122.17 Y133.5 E2.74668
G1 X113.054 Y133.499 E3.04988
G1 X112.337 Y133.489 E3.07373
G1 X112.022 Y133.48 E3.08421
G1 X111.379 Y133.453 E3.10561
G1 X108.741 Y133.378 E3.19339
G1 X106.253 Y133.378 E3.27614
G1 X103.679 Y133.451 E3.36179
G1 X103.321 Y133.469 E3.37371
G1 X103.078 Y133.478 E3.3818
G1 X102.485 Y133.495 E3.40153
G1 X102.17 Y133.5 E3.412
G1 X93.065 Y133.499 E3.71484
G1 X92.367 Y133.49 E3.73806
G1 X91.431 Y133.438 E3.76924
G1 X90.502 Y133.306 E3.80044
G1 X89.588 Y133.096 E3.83164
G1 X88.695 Y132.809 E3.86283
G1 X87.83 Y132.446 E3.89403
G1 X86.999 Y132.012 E3.92522
G1 X86.208 Y131.508 E3.95641
G1 X85.463 Y130.938 E3.98761
G1 X84.769 Y130.307 E4.01881
G1 X84.132 Y129.62 E4.04997
G1 X83.555 Y128.88 E4.08118
G1 X83.043 Y128.094 E4.11238
G1 X82.6 Y127.267 E4.14358
G1 X82.229 Y126.406 E4.17476
G1 X81.933 Y125.516 E4.20596
G1 X81.714 Y124.604 E4.23716
G1 X81.573 Y123.677 E4.26834
G1 X81.513 Y122.788 E4.29798
G1 X81.504 Y122.455 E4.30906
G1 X81.5 Y122.158 E4.31894
G1 X81.501 Y113.025 E4.6227
G1 X81.51 Y112.36 E4.64482
G1 X81.563 Y111.424 E4.676
G1 X81.695 Y110.495 E4.70721
G1 X81.906 Y109.581 E4.73841
G1 X82.194 Y108.689 E4.76959
G1 X82.557 Y107.824 E4.80079
G1 X82.992 Y106.993 E4.83199
G1 X83.496 Y106.203 E4.86315
G1 X84.066 Y105.458 E4.89435
G1 X84.698 Y104.764 E4.92557
G1 X85.386 Y104.127 E4.95676
G0 F6000 X85.774 Y104.323
G1 F1200 X86.51 Y103.77 E4.98738
G1 X87.291 Y103.282 E5.01801
G1 X88.111 Y102.864 E5.04862
G1 X88.965 Y102.519 E5.07925
G1 X89.845 Y102.249 E5.10987
G1 X90.745 Y102.057 E5.14048
G1 X91.659 Y101.943 E5.17111
G1 X92.212 Y101.913 E5.18953
G1 X92.533 Y101.904 E5.20021
G1 X92.83 Y101.9 E5.21009
G1 X101.793 Y101.9 E5.5082
G1 X102.659 Y101.911 E5.53701
G1 X102.962 Y101.92 E5.54709
G1 X103.592 Y101.947 E5.56806
G1 X106.248 Y102.022 E5.65644
G1 X108.759 Y102.022 E5.73995
G1 X111.354 Y101.949 E5.8263
G1 X111.933 Y101.921 E5.84558
G1 X112.526 Y101.904 E5.86531
G1 X112.83 Y101.9 E5.87542
G1 X121.945 Y101.901 E6.17859
G1 X122.643 Y101.911 E6.2018
G1 X123.562 Y101.964 E6.23242
G1 X124.473 Y102.097 E6.26304
G1 X125.369 Y102.308 E6.29366
G1 X126.243 Y102.596 E6.32427
G1 X127.09 Y102.959 E6.35492
G1 X127.901 Y103.394 E6.38552
G1 X128.671 Y103.898 E6.41613
G1 X129.395 Y104.467 E6.44676
G1 X130.067 Y105.097 E6.4774
G1 X130.682 Y105.782 E6.50802
G1 X131.235 Y106.518 E6.53864
G1 X131.722 Y107.299 E6.56925
G1 X132.139 Y108.12 E6.59987
G1 X132.484 Y108.974 E6.63051
G1 X132.753 Y109.854 E6.66111
G1 X132.945 Y110.755 E6.69176
G1 X133.058 Y111.668 E6.72235
G1 X133.087 Y112.212 E6.74047
G1 X133.096 Y112.532 E6.75112
G1 X133.1 Y112.83 E6.76103
G1 X133.099 Y121.895 E7.06254
G1 X133.09 Y122.622 E7.08672
G1 X133.039 Y123.541 E7.11733
G1 X132.908 Y124.453 E7.14798
G1 X132.698 Y125.349 E7.17858
G1 X132.412 Y126.224 E7.2092
G1 X132.051 Y127.071 E7.23982
G1 X131.617 Y127.883 E7.27045
G1 X131.115 Y128.655 E7.30108
G1 X130.547 Y129.38 E7.33171
G1 X129.919 Y130.053 E7.36232
G1 X129.235 Y130.669 E7.39294
G1 X128.5 Y131.223 E7.42355
G1 X127.72 Y131.712 E7.45417
G1 X126.9 Y132.131 E7.4848
G1 X126.047 Y132.477 E7.51542
G1 X125.167 Y132.748 E7.54604
G1 X124.267 Y132.941 E7.57666
G1 X123.353 Y133.056 E7.6073
G1 X122.788 Y133.087 E7.62612
G1 X122.467 Y133.096 E7.6368
G1 X122.17 Y133.1 E7.64668
G1 X113.059 Y133.099 E7.94971
G1 X112.342 Y133.089 E7.97356
G1 X112.039 Y133.08 E7.98364
G1 X111.408 Y133.053 E8.00465
G1 X108.752 Y132.978 E8.09302
G1 X106.242 Y132.978 E8.1765
G1 X103.648 Y133.051 E8.26282
G1 X103.067 Y133.079 E8.28216
G1 X102.474 Y133.096 E8.30189
G1 X102.17 Y133.1 E8.312
G1 X93.07 Y133.099 E8.61467
G1 X92.372 Y133.09 E8.63789
G1 X91.453 Y133.038 E8.6685
G1 X90.542 Y132.907 E8.69912
G1 X89.646 Y132.697 E8.72972
G1 X88.771 Y132.41 E8.76035
G1 X87.924 Y132.048 E8.79099
G1 X87.112 Y131.614 E8.82161
G1 X86.341 Y131.112 E8.85221
G1 X85.616 Y130.544 E8.88285
G1 X84.943 Y129.915 E8.91348
G1 X84.328 Y129.231 E8.94408
G1 X83.774 Y128.496 E8.97469
G1 X83.286 Y127.715 E9.00532
G1 X82.867 Y126.895 E9.03595
G1 X82.521 Y126.042 E9.06656
G1 X82.251 Y125.162 E9.09718
G1 X82.058 Y124.261 E9.12783
G1 X81.944 Y123.348 E9.15843
G1 X81.913 Y122.777 E9.17745
G1 X81.904 Y122.444 E9.18853
G1 X81.9 Y122.158 E9.19804
G1 X81.901 Y113.031 E9.50161
G1 X81.91 Y112.366 E9.52373
G1 X81.962 Y111.446 E9.55437
G1 X82.094 Y110.535 E9.58499
G1 X82.305 Y109.639 E9.61561
G1 X82.592 Y108.764 E9.64624
G1 X82.955 Y107.918 E9.67685
G1 X83.389 Y107.106 E9.70748
G1 X83.892 Y106.335 E9.7381
G1 X84.461 Y105.611 E9.76872
G1 X85.089 Y104.939 E9.79931
G1 X85.774 Y104.323 E9.82995
G0 F6000 X86.162 Y104.524
G1 F1200 X86.894 Y103.994 E9.86001
G1 X87.669 Y103.531 E9.89004
G1 X88.482 Y103.138 E9.92007
G1 X89.327 Y102.818 E9.95013
G1 X90.196 Y102.575 E9.98014
G1 X91.084 Y102.409 E10.01018
G1 X92.223 Y102.313 E10.0482
G1 X92.544 Y102.304 E10.05888
G1 X92.83 Y102.3 E10.0684
G1 X101.793 Y102.3 E10.36651
G1 X102.653 Y102.311 E10.39511
G1 X102.945 Y102.319 E10.40483
G1 X103.633 Y102.348 E10.42773
G1 X106.237 Y102.422 E10.51438
G1 X108.77 Y102.422 E10.59862
G1 X111.341 Y102.349 E10.68417
G1 X111.72 Y102.33 E10.69679
G1 X111.945 Y102.321 E10.70428
G1 X112.538 Y102.304 E10.72401
G1 X112.83 Y102.3 E10.73373
G1 X121.939 Y102.301 E11.03669
G1 X122.637 Y102.311 E11.05991
G1 X123.539 Y102.364 E11.08996
G1 X124.432 Y102.496 E11.11999
G1 X125.31 Y102.707 E11.15002
G1 X126.166 Y102.995 E11.18006
G1 X126.993 Y103.357 E11.21008
G1 X127.785 Y103.792 E11.24014
G1 X128.536 Y104.294 E11.27018
G1 X129.239 Y104.861 E11.30022
G1 X129.889 Y105.488 E11.33026
G1 X130.481 Y106.17 E11.3603
G1 X131.011 Y106.901 E11.39033
G1 X131.473 Y107.677 E11.42037
G1 X131.866 Y108.49 E11.4504
G1 X132.184 Y109.335 E11.48043
G1 X132.427 Y110.205 E11.51047
G1 X132.592 Y111.093 E11.54051
G1 X132.687 Y112.223 E11.57823
G1 X132.696 Y112.543 E11.58888
G1 X132.7 Y112.83 E11.59842
G1 X132.699 Y121.89 E11.89976
G1 X132.69 Y122.617 E11.92394
G1 X132.639 Y123.519 E11.95399
G1 X132.508 Y124.413 E11.98404
G1 X132.299 Y125.291 E12.01406
G1 X132.013 Y126.148 E12.04411
G1 X131.652 Y126.976 E12.07415
G1 X131.22 Y127.768 E12.10416
G1 X130.719 Y128.52 E12.13421
G1 X130.153 Y129.224 E12.16426
G1 X129.528 Y129.875 E12.19427
G1 X128.847 Y130.469 E12.22433
G1 X128.116 Y131 E12.25438
G1 X127.342 Y131.464 E12.2844
G1 X126.529 Y131.858 E12.31444
G1 X125.685 Y132.178 E12.34447
G1 X124.815 Y132.423 E12.37453
G1 X123.928 Y132.589 E12.40454
G1 X122.777 Y132.687 E12.44296
G1 X122.456 Y132.696 E12.45364
G1 X122.17 Y132.7 E12.46316
G1 X113.065 Y132.699 E12.76599
G1 X112.348 Y132.689 E12.78984
G1 X112.056 Y132.681 E12.79956
G1 X111.367 Y132.652 E12.82249
G1 X108.763 Y132.578 E12.90914
G1 X106.23 Y132.578 E12.99338
G1 X103.662 Y132.651 E13.07883
G1 X103.281 Y132.67 E13.09152
G1 X103.055 Y132.679 E13.09904
G1 X102.462 Y132.696 E13.11877
G1 X102.17 Y132.7 E13.12849
G1 X93.075 Y132.699 E13.43099
G1 X92.377 Y132.69 E13.4542
G1 X91.476 Y132.639 E13.48422
G1 X90.582 Y132.507 E13.51428
G1 X89.704 Y132.298 E13.5443
G1 X88.847 Y132.011 E13.57435
G1 X88.02 Y131.65 E13.60437
G1 X87.227 Y131.217 E13.63442
G1 X86.476 Y130.716 E13.66444
G1 X85.772 Y130.15 E13.69449
G1 X85.121 Y129.524 E13.72453
G1 X84.528 Y128.843 E13.75456
G1 X83.998 Y128.112 E13.78459
G1 X83.534 Y127.337 E13.81464
G1 X83.14 Y126.524 E13.84469
G1 X82.82 Y125.68 E13.87471
G1 X82.576 Y124.81 E13.90476
G1 X82.41 Y123.922 E13.93481
G1 X82.313 Y122.767 E13.97336
G1 X82.304 Y122.434 E13.98444
G1 X82.3 Y122.158 E13.99362
G1 X82.301 Y113.036 E14.29702
G1 X82.31 Y112.371 E14.31914
G1 X82.362 Y111.469 E14.34919
G1 X82.494 Y110.576 E14.37921
G1 X82.704 Y109.698 E14.40924
G1 X82.991 Y108.841 E14.4393
G1 X83.353 Y108.014 E14.46932
G1 X83.786 Y107.222 E14.49934
G1 X84.288 Y106.471 E14.52939
G1 X84.855 Y105.767 E14.55945
G1 X85.481 Y105.117 E14.58947
G1 X86.162 Y104.524 E14.6195
G1 F2700 E9.6195
;MESH:10x10x10 cube.stl(1)
G0 F6000 X92.914 Y111.835
G0 X92.914 Y112.914
G0 X101.718 Y113.282
G0 X101.9 Y121.9
;TYPE:WALL-INNER
G1 F2700 E14.6195
G1 F1200 X93.1 Y121.9 E14.91219
G1 X93.1 Y113.1 E15.20488
G1 X101.9 Y113.1 E15.49757
G1 X101.9 Y121.9 E15.79026
G0 F6000 X102.3 Y122.3
;TYPE:WALL-OUTER
G1 F1200 X92.7 Y122.3 E16.10956
G1 X92.7 Y112.7 E16.42885
G1 X102.3 Y112.7 E16.74815
G1 X102.3 Y122.3 E17.06745
G0 F6000 X102.03 Y122.03
G0 X101.79 Y121.51
G0 X101.51 Y121.51
;TYPE:SKIN
G1 F1200 X93.49 Y121.51 E17.3342
G1 X93.49 Y113.49 E17.60094
G1 X101.51 Y113.49 E17.86769
G1 X101.51 Y121.51 E18.13443
G0 F6000 X101.79 Y121.51
G0 X101.79 Y113.794
G0 X101.349 Y113.794
G1 F1200 X101.204 Y113.649 E18.14125
G0 F6000 X100.638 Y113.649
G1 F1200 X101.349 Y114.36 E18.1747
G0 F6000 X101.349 Y114.926
G1 F1200 X100.073 Y113.649 E18.23474
G0 F6000 X99.507 Y113.649
G1 F1200 X101.349 Y115.491 E18.32138
G0 F6000 X101.349 Y116.057
G1 F1200 X98.941 Y113.649 E18.43465
G0 F6000 X98.376 Y113.649
G1 F1200 X101.349 Y116.623 E18.57451
G0 F6000 X101.349 Y117.188
G1 F1200 X97.81 Y113.649 E18.74098
G0 F6000 X97.244 Y113.649
G1 F1200 X101.349 Y117.754 E18.93406
G0 F6000 X101.349 Y118.32
G1 F1200 X96.679 Y113.649 E19.15375
G0 F6000 X96.113 Y113.649
G1 F1200 X101.349 Y118.885 E19.40003
G0 F6000 X101.349 Y119.451
G1 F1200 X95.547 Y113.649 E19.67294
G0 F6000 X94.982 Y113.649
G1 F1200 X101.349 Y120.017 E19.97245
G0 F6000 X101.349 Y120.582
G1 F1200 X94.416 Y113.649 E20.29856
G0 F6000 X93.85 Y113.649
G1 F1200 X101.349 Y121.148 E20.65129
G0 F6000 X100.984 Y121.348
G1 F1200 X93.649 Y114.014 E20.99628
G0 F6000 X93.649 Y114.58
G1 F1200 X100.418 Y121.348 E21.31465
G0 F6000 X99.852 Y121.348
G1 F1200 X93.649 Y115.145 E21.60642
G0 F6000 X93.649 Y115.711
G1 F1200 X99.286 Y121.348 E21.87157
G0 F6000 X98.721 Y121.348
G1 F1200 X93.649 Y116.277 E22.11011
G0 F6000 X93.649 Y116.843
G1 F1200 X98.155 Y121.348 E22.32204
G0 F6000 X97.589 Y121.348
G1 F1200 X93.649 Y117.408 E22.50736
G0 F6000 X93.649 Y117.974
G1 F1200 X97.024 Y121.348 E22.66609
G0 F6000 X96.458 Y121.348
G1 F1200 X93.649 Y118.54 E22.79819
G0 F6000 X93.649 Y119.105
G1 F1200 X95.892 Y121.348 E22.9037
G0 F6000 X95.327 Y121.348
G1 F1200 X93.649 Y119.671 E22.9826
G0 F6000 X93.649 Y120.237
G1 F1200 X94.761 Y121.348 E23.03488
G0 F6000 X94.195 Y121.348
G1 F1200 X93.649 Y120.802 E23.06057
G0 F6000 X93.3 Y120.802
G1 F2700 E18.06057
;MESH:10x10x10 cube.stl
G0 F6000 X93.21 Y120.802
G0 X93.282 Y121.718
G0 X102.08 Y121.9
G0 X103.165 Y121.9
G0 X111.835 Y121.9
G0 X112.92 Y121.9
G0 X121.9 Y121.9
;TYPE:WALL-INNER
G1 F2700 E23.06057
G1 F1200 X113.1 Y121.9 E23.35325
G1 X113.1 Y113.1 E23.64594
G1 X121.9 Y113.1 E23.93863
G1 X121.9 Y121.9 E24.23132
G0 F6000 X122.3 Y122.3
;TYPE:WALL-OUTER
G1 F1200 X112.7 Y122.3 E24.55062
G1 X112.7 Y112.7 E24.86992
G1 X122.3 Y112.7 E25.18921
G1 X122.3 Y122.3 E25.50851
G0 F6000 X122.03 Y122.03
G0 X121.79 Y121.51
G0 X121.51 Y121.51
;TYPE:SKIN
G1 F1200 X113.49 Y121.51 E25.77526
G1 X113.49 Y113.49 E26.042
G1 X121.51 Y113.49 E26.30875
G1 X121.51 Y121.51 E26.5755
G0 F6000 X121.79 Y121.51
G0 X121.79 Y113.995
G0 X121.349 Y113.995
G1 F1200 X121.004 Y113.65 E26.59172
G0 F6000 X120.438 Y113.65
G1 F1200 X121.349 Y114.561 E26.63457
G0 F6000 X121.349 Y115.126
G1 F1200 X119.872 Y113.65 E26.70402
G0 F6000 X119.307 Y113.65
G1 F1200 X121.349 Y115.692 E26.80007
G0 F6000 X121.349 Y116.258
G1 F1200 X118.741 Y113.65 E26.92275
G0 F6000 X118.175 Y113.65
G1 F1200 X121.349 Y116.823 E27.07202
G0 F6000 X121.349 Y117.389
G1 F1200 X117.61 Y113.65 E27.24789
G0 F6000 X117.044 Y113.65
G1 F1200 X121.349 Y117.955 E27.45038
G0 F6000 X121.349 Y118.52
G1 F1200 X116.478 Y113.65 E27.67948
G0 F6000 X115.913 Y113.65
G1 F1200 X121.349 Y119.086 E27.93517
G0 F6000 X121.349 Y119.652
G1 F1200 X115.347 Y113.65 E28.21748
G0 F6000 X114.781 Y113.65
G1 F1200 X121.349 Y120.218 E28.52642
G0 F6000 X121.349 Y120.783
G1 F1200 X114.216 Y113.65 E28.86194
G0 F6000 X113.649 Y113.649
G1 F1200 X121.349 Y121.349 E29.22412
G0 F6000 X120.783 Y121.349
G1 F1200 X113.649 Y114.215 E29.55968
G0 F6000 X113.649 Y114.781
G1 F1200 X120.218 Y121.349 E29.86865
G0 F6000 X119.652 Y121.349
G1 F1200 X113.649 Y115.346 E30.15101
G0 F6000 X113.649 Y115.912
G1 F1200 X119.086 Y121.349 E30.40675
G0 F6000 X118.52 Y121.349
G1 F1200 X113.649 Y116.478 E30.63587
G0 F6000 X113.649 Y117.043
G1 F1200 X117.955 Y121.349 E30.83841
G0 F6000 X117.389 Y121.349
G1 F1200 X113.649 Y117.609 E31.01432
G0 F6000 X113.649 Y118.175
G1 F1200 X116.823 Y121.349 E31.16362
G0 F6000 X116.258 Y121.349
G1 F1200 X113.649 Y118.74 E31.28634
G0 F6000 X113.649 Y119.306
G1 F1200 X115.692 Y121.349 E31.38244
G0 F6000 X115.126 Y121.349
G1 F1200 X113.649 Y119.872 E31.45191
G0 F6000 X113.649 Y120.437
G1 F1200 X114.561 Y121.349 E31.49481
G0 F6000 X113.995 Y121.349
G1 F1200 X113.649 Y121.003 E31.51108
G0 F6000 X113.3 Y121.003
G1 F2700 E26.51108
;MESH:NONMESH
G0 F300 X113.3 Y121.003 Z0.4
G0 F6000 X113.21 Y121.003
G0 X112.92 Y121.9
G0 X111.835 Y121.9
G0 X103.165 Y121.9
G0 X102.08 Y121.9
G0 X101.9 Y121.9
;TIME_ELAPSED:59.577951
;LAYER:1
M106 S85
;TYPE:WALL-INNER
;MESH:10x10x10 cube.stl(1)
G1 F2700 E31.51108
G1 F1350 X93.1 Y121.9 E31.80377
G1 X93.1 Y113.1 E32.09646
G1 X101.9 Y113.1 E32.38915
G1 X101.9 Y121.9 E32.68184
G0 F7500 X102.3 Y122.3
;TYPE:WALL-OUTER
G1 F1350 X92.7 Y122.3 E33.00114
G1 X92.7 Y112.7 E33.32043
G1 X102.3 Y112.7 E33.63973
G1 X102.3 Y122.3 E33.95903
G0 F7500 X102.03 Y122.03
G0 X101.79 Y121.51
G0 X101.51 Y121.51
;TYPE:SKIN
G1 F1350 X93.49 Y121.51 E34.22577
G1 X93.49 Y113.49 E34.49252
