;FLAVOR:RepRap
;TIME:751
;Filament used: 0.243157m
;Layer height: 0.1
;MINX:40.6
;MINY:40.6
;MINZ:0.3
;MAXX:59.4
;MAXY:59.4
;MAXZ:10
;Generated with Cura_SteamEngine 4.6.2
T0
M104 S200
M109 S200
M82 ;absolute extrusion mode
G28 ;Home
G1 Z15.0 F6000 ;Move the platform down 15mm
;Prime the extruder
G92 E0
G1 F200 E3
G92 E0
M83 ;relative extrusion mode
G1 F1500 E-6.5
;LAYER_COUNT:98
;LAYER:0
M107
G0 F3600 X55.54 Y41.857 Z0.3
;TYPE:SKIRT
G1 F1500 E6.5
G1 F900 X56.03 Y41.983 E0.02524
G1 X56.494 Y42.185 E0.02525
G1 X56.92 Y42.457 E0.02522
G1 X57.298 Y42.792 E0.0252
G1 X57.618 Y43.183 E0.02521
G1 X57.873 Y43.62 E0.02524
G1 X58.056 Y44.091 E0.02521
G1 X58.163 Y44.585 E0.02522
G1 X58.199 Y45.24 E0.03273
G1 X58.2 Y54.304 E0.4522
G1 X58.191 Y55.031 E0.03627
G1 X58.145 Y55.534 E0.0252
G1 X58.02 Y56.024 E0.02523
G1 X57.819 Y56.488 E0.02523
G1 X57.548 Y56.915 E0.02523
G1 X57.213 Y57.294 E0.02524
G1 X56.823 Y57.615 E0.0252
G1 X56.387 Y57.871 E0.02522
G1 X55.916 Y58.054 E0.02521
G1 X55.422 Y58.162 E0.02523
G1 X54.76 Y58.199 E0.03308
G1 X45.666 Y58.2 E0.4537
G1 X44.968 Y58.191 E0.03483
G1 X44.464 Y58.144 E0.02525
G1 X43.974 Y58.019 E0.02523
G1 X43.51 Y57.818 E0.02523
G1 X43.084 Y57.547 E0.02519
G1 X42.705 Y57.212 E0.02524
G1 X42.384 Y56.821 E0.02524
G1 X42.129 Y56.385 E0.0252
G1 X41.945 Y55.914 E0.02523
G1 X41.838 Y55.42 E0.02522
G1 X41.801 Y54.744 E0.03378
G1 X41.8 Y45.631 E0.45465
G1 X41.809 Y44.966 E0.03318
G1 X41.856 Y44.462 E0.02525
G1 X41.982 Y43.973 E0.02519
G1 X42.183 Y43.509 E0.02523
G1 X42.454 Y43.082 E0.02523
G1 X42.789 Y42.704 E0.0252
G1 X43.18 Y42.383 E0.02524
G1 X43.617 Y42.128 E0.02524
G1 X44.088 Y41.944 E0.02523
G1 X44.582 Y41.838 E0.02521
G1 X45.24 Y41.801 E0.03288
G1 X54.339 Y41.8 E0.45395
G1 X55.037 Y41.81 E0.03483
G1 X55.54 Y41.857 E0.0252
G0 F3600 X55.577 Y41.458
G1 F900 X56.098 Y41.584 E0.02674
G1 X56.595 Y41.787 E0.02678
G1 X57.056 Y42.061 E0.02676
G1 X57.471 Y42.4 E0.02673
G1 X57.831 Y42.798 E0.02677
G1 X58.128 Y43.244 E0.02673
G1 X58.356 Y43.73 E0.02678
G1 X58.508 Y44.244 E0.02674
G1 X58.59 Y44.909 E0.03343
G1 X58.6 Y54.309 E0.46897
G1 X58.591 Y55.036 E0.03627
G1 X58.544 Y55.57 E0.02674
G1 X58.419 Y56.091 E0.02673
G1 X58.217 Y56.588 E0.02677
G1 X57.944 Y57.05 E0.02677
G1 X57.606 Y57.466 E0.02674
G1 X57.209 Y57.827 E0.02677
G1 X56.763 Y58.125 E0.02676
G1 X56.278 Y58.353 E0.02674
G1 X55.764 Y58.507 E0.02677
G1 X55.092 Y58.59 E0.03378
G1 X45.661 Y58.6 E0.47051
G1 X44.963 Y58.591 E0.03483
G1 X44.428 Y58.544 E0.02679
G1 X43.907 Y58.418 E0.02674
G1 X43.41 Y58.216 E0.02677
G1 X42.949 Y57.943 E0.02673
G1 X42.533 Y57.604 E0.02677
G1 X42.172 Y57.208 E0.02673
G1 X41.874 Y56.762 E0.02676
G1 X41.646 Y56.276 E0.02678
G1 X41.493 Y55.762 E0.02676
G1 X41.41 Y55.088 E0.03388
G1 X41.4 Y45.625 E0.47211
G1 X41.409 Y44.96 E0.03318
G1 X41.457 Y44.426 E0.02675
G1 X41.583 Y43.905 E0.02674
G1 X41.785 Y43.408 E0.02677
G1 X42.058 Y42.947 E0.02673
G1 X42.397 Y42.531 E0.02677
G1 X42.794 Y42.171 E0.02674
G1 X43.241 Y41.873 E0.0268
G1 X43.726 Y41.645 E0.02674
G1 X44.24 Y41.492 E0.02676
G1 X44.908 Y41.41 E0.03358
G1 X54.345 Y41.4 E0.47081
G1 X55.043 Y41.41 E0.03483
G1 X55.577 Y41.458 E0.02675
G0 F3600 X55.612 Y41.058
G1 F900 X56.162 Y41.185 E0.02816
G1 X56.69 Y41.389 E0.02824
G1 X57.184 Y41.664 E0.02821
G1 X57.633 Y42.007 E0.02819
G1 X58.03 Y42.409 E0.02819
G1 X58.367 Y42.864 E0.02825
G1 X58.635 Y43.361 E0.02817
G1 X58.831 Y43.891 E0.02819
G1 X58.951 Y44.444 E0.02823
G1 X58.998 Y45.218 E0.03869
G1 X59 Y54.314 E0.4538
G1 X58.991 Y55.041 E0.03627
G1 X58.944 Y55.604 E0.02819
G1 X58.818 Y56.155 E0.0282
G1 X58.616 Y56.683 E0.0282
G1 X58.341 Y57.177 E0.02821
G1 X57.999 Y57.627 E0.0282
G1 X57.597 Y58.025 E0.02822
G1 X57.144 Y58.362 E0.02817
G1 X56.647 Y58.632 E0.02822
G1 X56.117 Y58.829 E0.02821
G1 X55.565 Y58.95 E0.02819
G1 X54.782 Y58.998 E0.03914
G1 X45.655 Y59 E0.45535
G1 X44.957 Y58.991 E0.03483
G1 X44.394 Y58.943 E0.02819
G1 X43.843 Y58.817 E0.0282
G1 X43.315 Y58.615 E0.0282
G1 X42.821 Y58.34 E0.02821
G1 X42.371 Y57.998 E0.0282
G1 X41.973 Y57.596 E0.02822
G1 X41.637 Y57.142 E0.02818
G1 X41.367 Y56.645 E0.02822
G1 X41.17 Y56.115 E0.02821
G1 X41.05 Y55.563 E0.02818
G1 X41.001 Y54.766 E0.03984
G1 X41 Y45.62 E0.4563
G1 X41.009 Y44.955 E0.03318
G1 X41.057 Y44.392 E0.02819
G1 X41.183 Y43.841 E0.0282
G1 X41.386 Y43.313 E0.02822
G1 X41.662 Y42.819 E0.02823
G1 X42.004 Y42.369 E0.0282
G1 X42.406 Y41.972 E0.02819
G1 X42.86 Y41.635 E0.02821
G1 X43.357 Y41.366 E0.02819
G1 X43.887 Y41.169 E0.02821
G1 X44.44 Y41.05 E0.02822
G1 X45.218 Y41.002 E0.03889
G1 X54.35 Y41 E0.4556
G1 X55.048 Y41.01 E0.03483
G1 X55.612 Y41.058 E0.02824
G0 F3600 X55.645 Y40.659
G1 F900 X56.224 Y40.786 E0.02957
G1 X56.781 Y40.99 E0.02959
G1 X57.305 Y41.268 E0.02959
G1 X57.787 Y41.613 E0.02957
G1 X58.219 Y42.02 E0.02961
G1 X58.591 Y42.481 E0.02955
G1 X58.899 Y42.988 E0.0296
G1 X59.135 Y43.532 E0.02958
G1 X59.296 Y44.102 E0.02955
G1 X59.389 Y44.886 E0.03939
G1 X59.4 Y54.318 E0.47056
G1 X59.391 Y55.045 E0.03627
G1 X59.343 Y55.637 E0.02963
G1 X59.217 Y56.216 E0.02956
G1 X59.014 Y56.773 E0.02958
G1 X58.738 Y57.298 E0.02959
G1 X58.394 Y57.781 E0.02958
G1 X57.988 Y58.213 E0.02958
G1 X57.527 Y58.586 E0.02958
G1 X57.021 Y58.895 E0.02958
G1 X56.478 Y59.132 E0.02956
G1 X55.907 Y59.295 E0.02963
G1 X55.114 Y59.389 E0.03984
G1 X45.65 Y59.4 E0.47216
G1 X44.952 Y59.391 E0.03483
G1 X44.361 Y59.343 E0.02958
G1 X43.782 Y59.216 E0.02957
G1 X43.225 Y59.013 E0.02958
G1 X42.7 Y58.737 E0.02959
G1 X42.218 Y58.392 E0.02957
G1 X41.786 Y57.986 E0.02958
G1 X41.412 Y57.525 E0.02962
G1 X41.104 Y57.019 E0.02955
G1 X40.867 Y56.475 E0.0296
G1 X40.705 Y55.905 E0.02956
G1 X40.611 Y55.11 E0.03994
G1 X40.6 Y45.614 E0.47376
G1 X40.609 Y44.949 E0.03318
G1 X40.657 Y44.358 E0.02958
G1 X40.784 Y43.779 E0.02957
G1 X40.988 Y43.222 E0.02959
G1 X41.265 Y42.698 E0.02957
G1 X41.61 Y42.216 E0.02957
G1 X42.016 Y41.784 E0.02958
G1 X42.477 Y41.411 E0.02958
G1 X42.984 Y41.103 E0.0296
G1 X43.527 Y40.866 E0.02956
G1 X44.098 Y40.704 E0.02961
G1 X44.886 Y40.611 E0.03959
G1 X54.356 Y40.6 E0.47246
G1 X55.054 Y40.61 E0.03483
G1 X55.645 Y40.659 E0.02959
G1 F1500 E-6.5
;MESH:10x10x10 cube.stl
G0 F3600 X54.386 Y44.335
G0 X54.386 Y45.614
G0 X45.67 Y54.33
G0 X45.6 Y54.4
;TYPE:WALL-INNER
G1 F1500 E6.5
G1 F900 X45.6 Y45.6 E0.43903
G1 X54.4 Y45.6 E0.43903
G1 X54.4 Y54.4 E0.43903
G1 X45.6 Y54.4 E0.43903
G0 F3600 X45.2 Y54.8
;TYPE:WALL-OUTER
G1 F900 X45.2 Y45.2 E0.47895
G1 X54.8 Y45.2 E0.47895
G1 X54.8 Y54.8 E0.47895
G1 X45.2 Y54.8 E0.47895
G0 F3600 X45.2 Y54.6
G0 X45.99 Y54.01
;TYPE:SKIN
G1 F900 X45.99 Y45.99 E0.40012
G1 X54.01 Y45.99 E0.40012
G1 X54.01 Y54.01 E0.40012
G1 X45.99 Y54.01 E0.40012
G0 F3600 X46.475 Y53.829
G1 F900 X46.169 Y53.523 E0.02159
G0 F3600 X46.169 Y52.958
G1 F900 X47.04 Y53.829 E0.06145
G0 F3600 X47.606 Y53.829
G1 F900 X46.169 Y52.392 E0.10139
G0 F3600 X46.169 Y51.826
G1 F900 X48.172 Y53.829 E0.14132
G0 F3600 X48.738 Y53.829
G1 F900 X46.169 Y51.26 E0.18126
G0 F3600 X46.169 Y50.695
G1 F900 X49.303 Y53.829 E0.22112
G0 F3600 X49.869 Y53.829
G1 F900 X46.169 Y50.129 E0.26105
G0 F3600 X46.169 Y49.563
G1 F900 X50.435 Y53.829 E0.30099
G0 F3600 X51 Y53.829
G1 F900 X46.169 Y48.998 E0.34085
G0 F3600 X46.169 Y48.432
G1 F900 X51.566 Y53.829 E0.38079
G0 F3600 X52.132 Y53.829
G1 F900 X46.169 Y47.866 E0.42072
G0 F3600 X46.169 Y47.301
G1 F900 X52.697 Y53.829 E0.46059
G0 F3600 X53.263 Y53.829
G1 F900 X46.169 Y46.735 E0.50052
G0 F3600 X46.169 Y46.169
G1 F900 X53.829 Y53.829 E0.54045
G0 F3600 X53.829 Y53.264
G1 F900 X46.735 Y46.169 E0.50056
G0 F3600 X47.301 Y46.169
G1 F900 X53.829 Y52.698 E0.46062
G0 F3600 X53.829 Y52.132
G1 F900 X47.866 Y46.169 E0.42072
G0 F3600 X48.432 Y46.169
G1 F900 X53.829 Y51.567 E0.38082
G0 F3600 X53.829 Y51.001
G1 F900 X48.998 Y46.169 E0.34089
G0 F3600 X49.563 Y46.169
G1 F900 X53.829 Y50.435 E0.30099
G0 F3600 X53.829 Y49.87
G1 F900 X50.129 Y46.169 E0.26109
G0 F3600 X50.695 Y46.169
G1 F900 X53.829 Y49.304 E0.22116
G0 F3600 X53.829 Y48.738
G1 F900 X51.26 Y46.169 E0.18126
G0 F3600 X51.826 Y46.169
G1 F900 X53.829 Y48.173 E0.14136
G0 F3600 X53.829 Y47.607
G1 F900 X52.392 Y46.169 E0.10142
G0 F3600 X52.958 Y46.169
G1 F900 X53.829 Y47.041 E0.06149
G0 F3600 X53.829 Y46.476
G1 F900 X53.523 Y46.169 E0.02163
;MESH:NONMESH
G0 F600 X53.523 Y46.169 Z0.4
G0 F3600 X45.67 Y54.33
G0 X45.6 Y54.4
;TIME_ELAPSED:38.362367
;LAYER:1
M106 S255
;TYPE:WALL-INNER
;MESH:10x10x10 cube.stl
G1 F1350 X45.6 Y45.6 E0.14634
G1 X54.4 Y45.6 E0.14634
G1 X54.4 Y54.4 E0.14634
G1 X45.6 Y54.4 E0.14634
G0 F5400 X45.2 Y54.8
;TYPE:WALL-OUTER
G1 F900 X45.2 Y45.2 E0.15965
G1 X54.8 Y45.2 E0.15965
G1 X54.8 Y54.8 E0.15965
G1 X45.2 Y54.8 E0.15965
G0 F5400 X45.2 Y54.6
G0 X45.99 Y54.01
;TYPE:SKIN
G1 F900 X45.99 Y45.99 E0.13337
G1 X54.01 Y45.99 E0.13337
G1 X54.01 Y54.01 E0.13337
G1 X45.99 Y54.01 E0.13337
G0 F5400 X46.169 Y46.602
G1 F900 X46.602 Y46.169 E0.01018
G0 F5400 X47.168 Y46.169
G1 F900 X46.169 Y47.168 E0.02349
G0 F5400 X46.169 Y47.733
G1 F900 X47.733 Y46.169 E0.03678
G0 F5400 X48.299 Y46.169
G1 F900 X46.169 Y48.299 E0.05009
G0 F5400 X46.169 Y48.865
G1 F900 X48.865 Y46.169 E0.06341
G0 F5400 X49.431 Y46.169
G1 F900 X46.169 Y49.431 E0.07672
G0 F5400 X46.169 Y49.996
G1 F900 X49.996 Y46.169 E0.09001
G0 F5400 X50.562 Y46.169
G1 F900 X46.169 Y50.562 E0.10332
G0 F5400 X46.169 Y51.128
G1 F900 X51.128 Y46.169 E0.11663
G0 F5400 X51.693 Y46.169
G1 F900 X46.169 Y51.693 E0.12992
G0 F5400 X46.169 Y52.259
G1 F900 X52.259 Y46.169 E0.14323
G0 F5400 X52.825 Y46.169
G1 F900 X46.169 Y52.825 E0.15654
G0 F5400 X46.169 Y53.39
G1 F900 X53.39 Y46.169 E0.16983
G0 F5400 X53.829 Y46.297
G1 F900 X46.296 Y53.829 E0.17715
G0 F5400 X46.862 Y53.829
G1 F900 X53.829 Y46.862 E0.16385
G0 F5400 X53.829 Y47.428
G1 F900 X47.427 Y53.829 E0.15055
G0 F5400 X47.993 Y53.829
G1 F900 X53.829 Y47.994 E0.13724
G0 F5400 X53.829 Y48.559
G1 F900 X48.559 Y53.829 E0.12394
G0 F5400 X49.124 Y53.829
G1 F900 X53.829 Y49.125 E0.11064
G0 F5400 X53.829 Y49.691
G1 F900 X49.69 Y53.829 E0.09733
G0 F5400 X50.256 Y53.829
G1 F900 X53.829 Y50.256 E0.08403
G0 F5400 X53.829 Y50.822
G1 F900 X50.821 Y53.829 E0.07073
G0 F5400 X51.387 Y53.829
G1 F900 X53.829 Y51.388 E0.05742
G0 F5400 X53.829 Y51.953
G1 F900 X51.953 Y53.829 E0.04412
G0 F5400 X52.518 Y53.829
G1 F900 X53.829 Y52.519 E0.03082
G0 F5400 X53.829 Y53.085
G1 F900 X53.084 Y53.829 E0.01751
G0 F5400 X53.65 Y53.829
G1 F900 X53.829 Y53.651 E0.0042
;MESH:NONMESH
G0 F600 X53.829 Y53.651 Z0.5
G0 F5400 X45.67 Y54.33
G0 X45.6 Y54.4
;TIME_ELAPSED:55.264038
;LAYER:2
;TYPE:WALL-INNER
;MESH:10x10x10 cube.stl
G1 F1800 X45.6 Y45.6 E0.14634
G1 X54.4 Y45.6 E0.14634
G1 X54.4 Y54.4 E0.14634
G1 X45.6 Y54.4 E0.14634
G0 F7200 X45.2 Y54.8
;TYPE:WALL-OUTER
G1 F900 X45.2 Y45.2 E0.15965
G1 X54.8 Y45.2 E0.15965
G1 X54.8 Y54.8 E0.15965
G1 X45.2 Y54.8 E0.15965
G0 F7200 X45.2 Y54.6
G0 X45.99 Y54.01
;TYPE:SKIN
G1 F900 X45.99 Y45.99 E0.13337
G1 X54.01 Y45.99 E0.13337
G1 X54.01 Y54.01 E0.13337
G1 X45.99 Y54.01 E0.13337
G0 F7200 X46.475 Y53.829
G1 F900 X46.169 Y53.523 E0.0072
G0 F7200 X46.169 Y52.958
G1 F900 X47.04 Y53.829 E0.02048
G0 F7200 X47.606 Y53.829
G1 F900 X46.169 Y52.392 E0.0338
G0 F7200 X46.169 Y51.826
G1 F900 X48.172 Y53.829 E0.04711
G0 F7200 X48.738 Y53.829
G1 F900 X46.169 Y51.26 E0.06042
G0 F7200 X46.169 Y50.695
G1 F900 X49.303 Y53.829 E0.07371
G0 F7200 X49.869 Y53.829
G1 F900 X46.169 Y50.129 E0.08702
G0 F7200 X46.169 Y49.563
G1 F900 X50.435 Y53.829 E0.10033
G0 F7200 X51 Y53.829
G1 F900 X46.169 Y48.998 E0.11362
G0 F7200 X46.169 Y48.432
G1 F900 X51.566 Y53.829 E0.12693
G0 F7200 X52.132 Y53.829
G1 F900 X46.169 Y47.866 E0.14024
G0 F7200 X46.169 Y47.301
G1 F900 X52.697 Y53.829 E0.15353
G0 F7200 X53.263 Y53.829
G1 F900 X46.169 Y46.735 E0.16684
G0 F7200 X46.169 Y46.169
G1 F900 X53.829 Y53.829 E0.18015
G0 F7200 X53.829 Y53.264
G1 F900 X46.735 Y46.169 E0.16685
G0 F7200 X47.301 Y46.169
G1 F900 X53.829 Y52.698 E0.15354
G0 F7200 X53.829 Y52.132
G1 F900 X47.866 Y46.169 E0.14024
G0 F7200 X48.432 Y46.169
G1 F900 X53.829 Y51.567 E0.12694
G0 F7200 X53.829 Y51.001
G1 F900 X48.998 Y46.169 E0.11363
G0 F7200 X49.563 Y46.169
G1 F900 X53.829 Y50.435 E0.10033
G0 F7200 X53.829 Y49.87
G1 F900 X50.129 Y46.169 E0.08703
G0 F7200 X50.695 Y46.169
G1 F900 X53.829 Y49.304 E0.07372
G0 F7200 X53.829 Y48.738
G1 F900 X51.26 Y46.169 E0.06042
G0 F7200 X51.826 Y46.169
G1 F900 X53.829 Y48.173 E0.04712
G0 F7200 X53.829 Y47.607
G1 F900 X52.392 Y46.169 E0.03381
G0 F7200 X52.958 Y46.169
G1 F900 X53.829 Y47.041 E0.0205
G0 F7200 X53.829 Y46.476
G1 F900 X53.523 Y46.169 E0.00721
;MESH:NONMESH
G0 F600 X53.523 Y46.169 Z0.6
G0 F7200 X45.67 Y54.33
G0 X45.6 Y54.4
;TIME_ELAPSED:71.732849
;LAYER:3
;TYPE:WALL-INNER
;MESH:10x10x10 cube.stl
G1 F1800 X45.6 Y45.6 E0.14634
G1 X54.4 Y45.6 E0.14634
G1 X54.4 Y54.4 E0.14634
G1 X45.6 Y54.4 E0.14634
G0 F7200 X45.2 Y54.8
;TYPE:WALL-OUTER
G1 F900 X45.2 Y45.2 E0.15965
G1 X54.8 Y45.2 E0.15965
G1 X54.8 Y54.8 E0.15965
G1 X45.2 Y54.8 E0.15965
G0 F7200 X45.2 Y54.6
G0 X45.99 Y54.01
;TYPE:SKIN
G1 F900 X45.99 Y45.99 E0.13337
G1 X54.01 Y45.99 E0.13337
G1 X54.01 Y54.01 E0.13337
G1 X45.99 Y54.01 E0.13337
G0 F7200 X46.169 Y46.602
G1 F900 X46.602 Y46.169 E0.01018
G0 F7200 X47.168 Y46.169
G1 F900 X46.169 Y47.168 E0.02349
G0 F7200 X46.169 Y47.733
G1 F900 X47.733 Y46.169 E0.03678
G0 F7200 X48.299 Y46.169
G1 F900 X46.169 Y48.299 E0.05009
G0 F7200 X46.169 Y48.865
G1 F900 X48.865 Y46.169 E0.06341
G0 F7200 X49.431 Y46.169
G1 F900 X46.169 Y49.431 E0.07672
G0 F7200 X46.169 Y49.996
G1 F900 X49.996 Y46.169 E0.09001
G0 F7200 X50.562 Y46.169
G1 F900 X46.169 Y50.562 E0.10332
G0 F7200 X46.169 Y51.128
G1 F900 X51.128 Y46.169 E0.11663
G0 F7200 X51.693 Y46.169
G1 F900 X46.169 Y51.693 E0.12992
G0 F7200 X46.169 Y52.259
G1 F900 X52.259 Y46.169 E0.14323
G0 F7200 X52.825 Y46.169
G1 F900 X46.169 Y52.825 E0.15654
G0 F7200 X46.169 Y53.39
G1 F900 X53.39 Y46.169 E0.16983
G0 F7200 X53.829 Y46.297
G1 F900 X46.296 Y53.829 E0.17715
G0 F7200 X46.862 Y53.829
G1 F900 X53.829 Y46.862 E0.16385
G0 F7200 X53.829 Y47.428
G1 F900 X47.427 Y53.829 E0.15055
G0 F7200 X47.993 Y53.829
G1 F900 X53.829 Y47.994 E0.13724
G0 F7200 X53.829 Y48.559
G1 F900 X48.559 Y53.829 E0.12394
G0 F7200 X49.124 Y53.829
G1 F900 X53.829 Y49.125 E0.11064
G0 F7200 X53.829 Y49.691
G1 F900 X49.69 Y53.829 E0.09733
G0 F7200 X50.256 Y53.829
G1 F900 X53.829 Y50.256 E0.08403
G0 F7200 X53.829 Y50.822
G1 F900 X50.821 Y53.829 E0.07073
G0 F7200 X51.387 Y53.829
G1 F900 X53.829 Y51.388 E0.05742
G0 F7200 X53.829 Y51.953
G1 F900 X51.953 Y53.829 E0.04412
G0 F7200 X52.518 Y53.829
G1 F900 X53.829 Y52.519 E0.03082
G0 F7200 X53.829 Y53.085
G1 F900 X53.084 Y53.829 E0.01751
G0 F7200 X53.65 Y53.829
G1 F900 X53.829 Y53.651 E0.0042
;MESH:NONMESH
G0 F600 X53.829 Y53.651 Z0.7
G0 F7200 X45.67 Y54.33
G0 X45.6 Y54.4
;TIME_ELAPSED:88.229517
;LAYER:4
;TYPE:WALL-INNER
;MESH:10x10x10 cube.stl
G1 F1800 X45.6 Y45.6 E0.14634
G1 X54.4 Y45.6 E0.14634
G1 X54.4 Y54.4 E0.14634
G1 X45.6 Y54.4 E0.14634
G0 F7200 X45.2 Y54.8
;TYPE:WALL-OUTER
G1 F900 X45.2 Y45.2 E0.15965
G1 X54.8 Y45.2 E0.15965
G1 X54.8 Y54.8 E0.15965
G1 X45.2 Y54.8 E0.15965
G0 F7200 X45.2 Y54.6
G0 X45.99 Y54.01
;TYPE:SKIN
G1 F900 X45.99 Y45.99 E0.13337
G1 X54.01 Y45.99 E0.13337
G1 X54.01 Y54.01 E0.13337
G1 X45.99 Y54.01 E0.13337
G0 F7200 X46.475 Y53.829
G1 F900 X46.169 Y53.523 E0.0072
G0 F7200 X46.169 Y52.958
G1 F900 X47.04 Y53.829 E0.02048
G0 F7200 X47.606 Y53.829
G1 F900 X46.169 Y52.392 E0.0338
G0 F7200 X46.169 Y51.826
G1 F900 X48.172 Y53.829 E0.04711
G0 F7200 X48.738 Y53.829
G1 F900 X46.169 Y51.26 E0.06042
G0 F7200 X46.169 Y50.695
G1 F900 X49.303 Y53.829 E0.07371
G0 F7200 X49.869 Y53.829
G1 F900 X46.169 Y50.129 E0.08702
G0 F7200 X46.169 Y49.563
G1 F900 X50.435 Y53.829 E0.10033
G0 F7200 X51 Y53.829
G1 F900 X46.169 Y48.998 E0.11362
G0 F7200 X46.169 Y48.432
G1 F900 X51.566 Y53.829 E0.12693
G0 F7200 X52.132 Y53.829
G1 F900 X46.169 Y47.866 E0.14024
G0 F7200 X46.169 Y47.301
G1 F900 X52.697 Y53.829 E0.15353
G0 F7200 X53.263 Y53.829
G1 F900 X46.169 Y46.735 E0.16684
G0 F7200 X46.169 Y46.169
G1 F900 X53.829 Y53.829 E0.18015
G0 F7200 X53.829 Y53.264
G1 F900 X46.735 Y46.169 E0.16685
G0 F7200 X47.301 Y46.169
G1 F900 X53.829 Y52.698 E0.15354
G0 F7200 X53.829 Y52.132
