;FLAVOR:Marlin
;TIME:561
;Filament used: 0.233232m
;Layer height: 0.2
;MINX:101.5
;MINY:101.5
;MINZ:0.2
;MAXX:133.5
;MAXY:133.5
;MAXZ:10
;Generated with Cura_SteamEngine 4.12.1
M140 S50
M105
M190 S50
M104 S200
M105
M109 S200
M82 ;absolute extrusion mode
; Ender 3 Custom Start G-code
G92 E0 ; Reset Extruder
G28 ; Home all axes
G1 Z2.0 F3000 ; Move Z Axis up little to prevent scratching of Heat Bed
G1 X0.1 Y20 Z0.3 F5000.0 ; Move to start position
G1 X0.1 Y200.0 Z0.3 F1500.0 E15 ; Draw the first line
G1 X0.4 Y200.0 Z0.3 F5000.0 ; Move to side a little
G1 X0.4 Y20 Z0.3 F1500.0 E30 ; Draw the second line
G92 E0 ; Reset Extruder
G1 Z2.0 F3000 ; Move Z Axis up little to prevent scratching of Heat Bed
G1 X5 Y20 Z0.3 F5000.0 ; Move over to prevent blob squish
G92 E0
G92 E0
G1 F2700 E-5
;LAYER_COUNT:50
;LAYER:0
M107
G0 F6000 X104.698 Y104.764 Z0.2
;TYPE:SKIRT
G1 F2700 E0
G1 F1200 X105.386 Y104.127 E0.03119
G1 X106.126 Y103.551 E0.06237
G1 X106.912 Y103.039 E0.09357
G1 X107.739 Y102.597 E0.12476
G1 X108.601 Y102.227 E0.15596
G1 X109.491 Y101.931 E0.18716
G1 X110.403 Y101.713 E0.21835
G1 X111.33 Y101.572 E0.24953
G1 X112.201 Y101.513 E0.27857
G1 X112.522 Y101.504 E0.28925
G1 X112.83 Y101.5 E0.29949
G1 X121.793 Y101.5 E0.59761
G1 X122.649 Y101.511 E0.62608
G1 X123.585 Y101.565 E0.65726
G1 X124.513 Y101.697 E0.68844
G1 X125.427 Y101.909 E0.71964
G1 X126.319 Y102.198 E0.75083
G1 X127.184 Y102.561 E0.78203
G1 X128.014 Y102.997 E0.81321
G1 X128.805 Y103.502 E0.84443
G1 X129.549 Y104.073 E0.87562
G1 X130.242 Y104.705 E0.90682
G1 X130.879 Y105.393 E0.938
G1 X131.454 Y106.134 E0.9692
G1 X131.965 Y106.92 E1.00038
G1 X132.407 Y107.748 E1.0316
G1 X132.776 Y108.61 E1.06278
G1 X133.071 Y109.5 E1.09397
G1 X133.289 Y110.412 E1.12516
G1 X133.429 Y111.34 E1.15637
G1 X133.487 Y112.201 E1.18507
G1 X133.496 Y112.521 E1.19572
G1 X133.5 Y112.83 E1.206
G1 X133.499 Y121.9 E1.50767
G1 X133.49 Y122.627 E1.53185
G1 X133.439 Y123.564 E1.56306
G1 X133.307 Y124.492 E1.59424
G1 X133.098 Y125.406 E1.62542
G1 X132.811 Y126.299 E1.65662
G1 X132.449 Y127.165 E1.68784
G1 X132.015 Y127.996 E1.71902
G1 X131.511 Y128.787 E1.75021
G1 X130.942 Y129.532 E1.78139
G1 X130.311 Y130.227 E1.81261
G1 X129.624 Y130.865 E1.8438
G1 X128.885 Y131.442 E1.87498
G1 X128.099 Y131.954 E1.90618
G1 X127.273 Y132.397 E1.93736
G1 X126.411 Y132.769 E1.96858
G1 X125.522 Y133.065 E1.99975
G1 X124.61 Y133.285 E2.03095
G1 X123.683 Y133.426 E2.06214
G1 X122.799 Y133.487 E2.09161
G1 X122.478 Y133.496 E2.10229
G1 X122.17 Y133.5 E2.11253
G1 X113.065 Y133.499 E2.41537
G1 X112.367 Y133.49 E2.43858
G1 X111.431 Y133.438 E2.46976
G1 X110.502 Y133.306 E2.50097
G1 X109.588 Y133.096 E2.53216
G1 X108.695 Y132.809 E2.56336
G1 X107.83 Y132.446 E2.59456
G1 X106.999 Y132.012 E2.62574
G1 X106.208 Y131.508 E2.65694
G1 X105.463 Y130.938 E2.68814
G1 X104.769 Y130.307 E2.71934
G1 X104.132 Y129.62 E2.7505
G1 X103.555 Y128.88 E2.78171
G1 X103.043 Y128.094 E2.81291
G1 X102.6 Y127.267 E2.84411
G1 X102.229 Y126.406 E2.87529
G1 X101.933 Y125.516 E2.90649
G1 X101.714 Y124.604 E2.93768
G1 X101.573 Y123.677 E2.96887
G1 X101.513 Y122.788 E2.99851
G1 X101.504 Y122.455 E3.00959
G1 X101.5 Y122.158 E3.01947
G1 X101.501 Y113.025 E3.32323
G1 X101.51 Y112.36 E3.34535
G1 X101.563 Y111.424 E3.37653
G1 X101.695 Y110.495 E3.40774
G1 X101.906 Y109.581 E3.43894
G1 X102.194 Y108.689 E3.47012
G1 X102.557 Y107.824 E3.50132
G1 X102.992 Y106.993 E3.53251
G1 X103.496 Y106.203 E3.56368
G1 X104.066 Y105.458 E3.59488
G1 X104.698 Y104.764 E3.6261
G0 F6000 X105.089 Y104.939
G1 F1200 X105.774 Y104.323 E3.65674
G1 X106.51 Y103.77 E3.68736
G1 X107.291 Y103.282 E3.71799
G1 X108.111 Y102.864 E3.7486
G1 X108.965 Y102.519 E3.77924
G1 X109.845 Y102.249 E3.80985
G1 X110.745 Y102.057 E3.84046
G1 X111.659 Y101.943 E3.8711
G1 X112.212 Y101.913 E3.88952
G1 X112.533 Y101.904 E3.9002
G1 X112.83 Y101.9 E3.91008
G1 X121.793 Y101.9 E4.20819
G1 X122.643 Y101.911 E4.23646
G1 X123.562 Y101.964 E4.26708
G1 X124.473 Y102.097 E4.2977
G1 X125.369 Y102.308 E4.32831
G1 X126.243 Y102.596 E4.35892
G1 X127.09 Y102.959 E4.38957
G1 X127.901 Y103.394 E4.42018
G1 X128.671 Y103.898 E4.45079
G1 X129.395 Y104.467 E4.48142
G1 X130.067 Y105.097 E4.51205
G1 X130.682 Y105.782 E4.54267
G1 X131.235 Y106.518 E4.57329
G1 X131.722 Y107.299 E4.6039
G1 X132.139 Y108.12 E4.63453
G1 X132.484 Y108.974 E4.66516
G1 X132.753 Y109.854 E4.69577
G1 X132.945 Y110.755 E4.72641
G1 X133.058 Y111.668 E4.75701
G1 X133.087 Y112.212 E4.77513
G1 X133.096 Y112.532 E4.78577
G1 X133.1 Y112.83 E4.79569
G1 X133.099 Y121.895 E5.09719
G1 X133.09 Y122.622 E5.12137
G1 X133.039 Y123.541 E5.15199
G1 X132.908 Y124.453 E5.18263
G1 X132.698 Y125.349 E5.21324
G1 X132.412 Y126.224 E5.24386
G1 X132.051 Y127.071 E5.27448
G1 X131.617 Y127.883 E5.3051
G1 X131.115 Y128.655 E5.33573
G1 X130.547 Y129.38 E5.36636
G1 X129.919 Y130.053 E5.39698
G1 X129.235 Y130.669 E5.42759
G1 X128.5 Y131.223 E5.45821
G1 X127.72 Y131.712 E5.48883
G1 X126.9 Y132.131 E5.51945
G1 X126.047 Y132.477 E5.55007
G1 X125.167 Y132.748 E5.5807
G1 X124.267 Y132.941 E5.61131
G1 X123.353 Y133.056 E5.64195
G1 X122.788 Y133.087 E5.66077
G1 X122.467 Y133.096 E5.67145
G1 X122.17 Y133.1 E5.68133
G1 X113.07 Y133.099 E5.984
G1 X112.372 Y133.09 E6.00722
G1 X111.453 Y133.038 E6.03783
G1 X110.542 Y132.907 E6.06844
G1 X109.646 Y132.697 E6.09905
G1 X108.771 Y132.41 E6.12968
G1 X107.924 Y132.048 E6.16031
G1 X107.112 Y131.614 E6.19094
G1 X106.341 Y131.112 E6.22154
G1 X105.616 Y130.544 E6.25217
G1 X104.943 Y129.915 E6.28281
G1 X104.328 Y129.231 E6.3134
G1 X103.774 Y128.496 E6.34402
G1 X103.286 Y127.715 E6.37465
G1 X102.867 Y126.895 E6.40527
G1 X102.521 Y126.042 E6.43589
G1 X102.251 Y125.162 E6.4665
G1 X102.058 Y124.261 E6.49715
G1 X101.944 Y123.348 E6.52775
G1 X101.913 Y122.777 E6.54677
G1 X101.904 Y122.444 E6.55785
G1 X101.9 Y122.158 E6.56737
G1 X101.901 Y113.031 E6.87093
G1 X101.91 Y112.366 E6.89305
G1 X101.962 Y111.446 E6.9237
G1 X102.094 Y110.535 E6.95432
G1 X102.305 Y109.639 E6.98493
G1 X102.592 Y108.764 E7.01556
G1 X102.955 Y107.918 E7.04618
G1 X103.389 Y107.106 E7.0768
G1 X103.892 Y106.335 E7.10742
G1 X104.461 Y105.611 E7.13805
G1 X105.089 Y104.939 E7.16864
G0 F6000 X105.481 Y105.117
G1 F1200 X106.162 Y104.524 E7.19867
G1 X106.894 Y103.994 E7.22873
G1 X107.669 Y103.531 E7.25876
G1 X108.482 Y103.138 E7.28879
G1 X109.327 Y102.818 E7.31884
G1 X110.196 Y102.575 E7.34886
G1 X111.084 Y102.409 E7.3789
G1 X112.223 Y102.313 E7.41692
G1 X112.544 Y102.304 E7.4276
G1 X112.83 Y102.3 E7.43711
G1 X121.793 Y102.3 E7.73523
G1 X122.637 Y102.311 E7.7633
G1 X123.539 Y102.364 E7.79335
G1 X124.432 Y102.496 E7.82338
G1 X125.31 Y102.707 E7.85341
G1 X126.166 Y102.995 E7.88345
G1 X126.993 Y103.357 E7.91347
G1 X127.785 Y103.792 E7.94353
G1 X128.536 Y104.294 E7.97357
G1 X129.239 Y104.861 E8.00361
G1 X129.889 Y105.488 E8.03365
G1 X130.481 Y106.17 E8.06369
G1 X131.011 Y106.901 E8.09372
G1 X131.473 Y107.677 E8.12376
G1 X131.866 Y108.49 E8.15379
G1 X132.184 Y109.335 E8.18382
G1 X132.427 Y110.205 E8.21386
G1 X132.592 Y111.093 E8.2439
G1 X132.687 Y112.223 E8.28162
G1 X132.696 Y112.543 E8.29227
G1 X132.7 Y112.83 E8.30181
G1 X132.699 Y121.89 E8.60315
G1 X132.69 Y122.617 E8.62733
G1 X132.639 Y123.519 E8.65738
G1 X132.508 Y124.413 E8.68743
G1 X132.299 Y125.291 E8.71745
G1 X132.013 Y126.148 E8.7475
G1 X131.652 Y126.976 E8.77754
G1 X131.22 Y127.768 E8.80755
G1 X130.719 Y128.52 E8.8376
G1 X130.153 Y129.224 E8.86765
G1 X129.528 Y129.875 E8.89766
G1 X128.847 Y130.469 E8.92772
G1 X128.116 Y131 E8.95777
G1 X127.342 Y131.464 E8.98779
G1 X126.529 Y131.858 E9.01783
G1 X125.685 Y132.178 E9.04786
G1 X124.815 Y132.423 E9.07792
G1 X123.928 Y132.589 E9.10793
G1 X122.777 Y132.687 E9.14635
G1 X122.456 Y132.696 E9.15703
G1 X122.17 Y132.7 E9.16655
G1 X113.075 Y132.699 E9.46905
G1 X112.377 Y132.69 E9.49226
G1 X111.476 Y132.639 E9.52228
G1 X110.582 Y132.507 E9.55234
G1 X109.704 Y132.298 E9.58236
G1 X108.847 Y132.011 E9.61242
G1 X108.02 Y131.65 E9.64243
G1 X107.227 Y131.217 E9.67248
G1 X106.476 Y130.716 E9.70251
G1 X105.772 Y130.15 E9.73255
G1 X105.121 Y129.524 E9.76259
G1 X104.528 Y128.843 E9.79262
G1 X103.998 Y128.112 E9.82265
G1 X103.534 Y127.337 E9.8527
G1 X103.14 Y126.524 E9.88275
G1 X102.82 Y125.68 E9.91277
G1 X102.576 Y124.81 E9.94282
G1 X102.41 Y123.922 E9.97287
G1 X102.313 Y122.767 E10.01142
G1 X102.304 Y122.434 E10.0225
G1 X102.3 Y122.158 E10.03168
G1 X102.301 Y113.036 E10.33508
G1 X102.31 Y112.371 E10.3572
G1 X102.362 Y111.469 E10.38725
G1 X102.494 Y110.576 E10.41727
G1 X102.704 Y109.698 E10.4473
G1 X102.991 Y108.841 E10.47736
G1 X103.353 Y108.014 E10.50738
G1 X103.786 Y107.222 E10.5374
G1 X104.288 Y106.471 E10.56745
G1 X104.855 Y105.767 E10.59751
G1 X105.481 Y105.117 E10.62753
G1 F2700 E5.62753
;MESH:10x10x10 cube.stl
G0 F6000 X112.914 Y111.835
G0 X112.914 Y112.914
G0 X121.718 Y113.282
G0 X121.9 Y121.9
;TYPE:WALL-INNER
G1 F2700 E10.62753
G1 F1200 X113.1 Y121.9 E10.92022
G1 X113.1 Y113.1 E11.21291
G1 X121.9 Y113.1 E11.5056
G1 X121.9 Y121.9 E11.79829
G0 F6000 X122.3 Y122.3
;TYPE:WALL-OUTER
G1 F1200 X112.7 Y122.3 E12.11758
G1 X112.7 Y112.7 E12.43688
G1 X122.3 Y112.7 E12.75618
G1 X122.3 Y122.3 E13.07548
G0 F6000 X122.03 Y122.03
G0 X121.79 Y121.51
G0 X121.51 Y121.51
;TYPE:SKIN
G1 F1200 X113.49 Y121.51 E13.34222
G1 X113.49 Y113.49 E13.60897
G1 X121.51 Y113.49 E13.87571
G1 X121.51 Y121.51 E14.14246
G0 F6000 X121.79 Y121.51
G0 X121.79 Y113.995
G0 X121.349 Y113.995
G1 F1200 X121.004 Y113.65 E14.15869
G0 F6000 X120.438 Y113.65
G1 F1200 X121.349 Y114.561 E14.20154
G0 F6000 X121.349 Y115.126
G1 F1200 X119.872 Y113.65 E14.27099
G0 F6000 X119.307 Y113.65
G1 F1200 X121.349 Y115.692 E14.36704
G0 F6000 X121.349 Y116.258
G1 F1200 X118.741 Y113.65 E14.48971
G0 F6000 X118.175 Y113.65
G1 F1200 X121.349 Y116.823 E14.63898
G0 F6000 X121.349 Y117.389
G1 F1200 X117.61 Y113.65 E14.81485
G0 F6000 X117.044 Y113.65
G1 F1200 X121.349 Y117.955 E15.01735
G0 F6000 X121.349 Y118.52
G1 F1200 X116.478 Y113.65 E15.24644
G0 F6000 X115.913 Y113.65
G1 F1200 X121.349 Y119.086 E15.50213
G0 F6000 X121.349 Y119.652
G1 F1200 X115.347 Y113.65 E15.78445
G0 F6000 X114.781 Y113.65
G1 F1200 X121.349 Y120.218 E16.09339
G0 F6000 X121.349 Y120.783
G1 F1200 X114.216 Y113.65 E16.4289
G0 F6000 X113.649 Y113.649
G1 F1200 X121.349 Y121.349 E16.79109
G0 F6000 X120.783 Y121.349
G1 F1200 X113.649 Y114.215 E17.12665
G0 F6000 X113.649 Y114.781
G1 F1200 X120.218 Y121.349 E17.43561
G0 F6000 X119.652 Y121.349
G1 F1200 X113.649 Y115.346 E17.71797
G0 F6000 X113.649 Y115.912
G1 F1200 X119.086 Y121.349 E17.97371
G0 F6000 X118.52 Y121.349
G1 F1200 X113.649 Y116.478 E18.20283
G0 F6000 X113.649 Y117.043
G1 F1200 X117.955 Y121.349 E18.40537
G0 F6000 X117.389 Y121.349
G1 F1200 X113.649 Y117.609 E18.58129
G0 F6000 X113.649 Y118.175
G1 F1200 X116.823 Y121.349 E18.73058
G0 F6000 X116.258 Y121.349
G1 F1200 X113.649 Y118.74 E18.8533
G0 F6000 X113.649 Y119.306
G1 F1200 X115.692 Y121.349 E18.9494
G0 F6000 X115.126 Y121.349
G1 F1200 X113.649 Y119.872 E19.01887
G0 F6000 X113.649 Y120.437
G1 F1200 X114.561 Y121.349 E19.06177
G0 F6000 X113.995 Y121.349
G1 F1200 X113.649 Y121.003 E19.07805
G0 F6000 X113.3 Y121.003
;MESH:NONMESH
G0 F300 X113.3 Y121.003 Z0.4
G0 F6000 X113.21 Y121.003
G0 X113.282 Y121.718
G0 X121.9 Y121.9
;TIME_ELAPSED:37.274699
;LAYER:1
M106 S85
;TYPE:WALL-INNER
;MESH:10x10x10 cube.stl
G1 F1350 X113.1 Y121.9 E19.37074
G1 X113.1 Y113.1 E19.66342
G1 X121.9 Y113.1 E19.95611
G1 X121.9 Y121.9 E20.2488
G0 F7500 X122.3 Y122.3
;TYPE:WALL-OUTER
G1 F1350 X112.7 Y122.3 E20.5681
G1 X112.7 Y112.7 E20.8874
G1 X122.3 Y112.7 E21.20669
G1 X122.3 Y122.3 E21.52599
G0 F7500 X122.03 Y122.03
G0 X121.79 Y121.51
G0 X121.51 Y121.51
;TYPE:SKIN
G1 F1350 X113.49 Y121.51 E21.79274
G1 X113.49 Y113.49 E22.05948
G1 X121.51 Y113.49 E22.32623
G1 X121.51 Y121.51 E22.59298
G0 F7500 X120.763 Y121.349
G1 F1350 X121.349 Y120.763 E22.62054
G0 F7500 X121.349 Y120.198
G1 F1350 X120.198 Y121.349 E22.67468
G0 F7500 X119.632 Y121.349
G1 F1350 X121.349 Y119.632 E22.75544
G0 F7500 X121.349 Y119.066
G1 F1350 X119.066 Y121.349 E22.86283
G0 F7500 X118.501 Y121.349
G1 F1350 X121.349 Y118.501 E22.99679
G0 F7500 X121.349 Y117.935
G1 F1350 X117.935 Y121.349 E23.15737
G0 F7500 X117.369 Y121.349
G1 F1350 X121.349 Y117.369 E23.34458
G0 F7500 X121.349 Y116.804
G1 F1350 X116.804 Y121.349 E23.55836
G0 F7500 X116.238 Y121.349
G1 F1350 X121.349 Y116.238 E23.79877
G0 F7500 X121.349 Y115.672
G1 F1350 X115.672 Y121.349 E24.0658
G0 F7500 X115.107 Y121.349
G1 F1350 X121.349 Y115.107 E24.3594
G0 F7500 X121.349 Y114.541
G1 F1350 X114.541 Y121.349 E24.67963
G0 F7500 X113.975 Y121.349
G1 F1350 X121.349 Y113.975 E25.02648
G0 F7500 X121.109 Y113.649
G1 F1350 X113.65 Y121.109 E25.37735
G0 F7500 X113.65 Y120.543
G1 F1350 X120.544 Y113.649 E25.70162
G0 F7500 X119.978 Y113.649
G1 F1350 X113.65 Y119.977 E25.99927
G0 F7500 X113.65 Y119.411
G1 F1350 X119.412 Y113.649 E26.2703
G0 F7500 X118.846 Y113.649
G1 F1350 X113.65 Y118.846 E26.51473
G0 F7500 X113.65 Y118.28
G1 F1350 X118.281 Y113.649 E26.73256
G0 F7500 X117.715 Y113.649
G1 F1350 X113.65 Y117.714 E26.92376
G0 F7500 X113.65 Y117.149
G1 F1350 X117.149 Y113.649 E27.08837
G0 F7500 X116.584 Y113.649
G1 F1350 X113.65 Y116.583 E27.22637
G0 F7500 X113.65 Y116.017
G1 F1350 X116.018 Y113.649 E27.33776
G0 F7500 X115.452 Y113.649
G1 F1350 X113.65 Y115.452 E27.42254
G0 F7500 X113.65 Y114.886
G1 F1350 X114.887 Y113.649 E27.48073
G0 F7500 X114.321 Y113.649
G1 F1350 X113.65 Y114.32 E27.51229
G0 F7500 X113.65 Y113.755
G1 F1350 X113.755 Y113.649 E27.51725
G0 F7500 X113.755 Y113.3
;MESH:NONMESH
G0 F300 X113.755 Y113.3 Z0.6
G0 F7500 X113.755 Y113.21
G0 X121.718 Y113.282
G0 X121.9 Y121.9
;TIME_ELAPSED:51.570381
;LAYER:2
M106 S170
;TYPE:WALL-INNER
;MESH:10x10x10 cube.stl
G1 F1500 X113.1 Y121.9 E27.80994
G1 X113.1 Y113.1 E28.10263
G1 X121.9 Y113.1 E28.39532
G1 X121.9 Y121.9 E28.68801
G0 F9000 X122.3 Y122.3
;TYPE:WALL-OUTER
G1 F1500 X112.7 Y122.3 E29.0073
G1 X112.7 Y112.7 E29.3266
G1 X122.3 Y112.7 E29.6459
G1 X122.3 Y122.3 E29.9652
G0 F9000 X122.03 Y122.03
G0 X121.79 Y121.51
G0 X121.51 Y121.51
;TYPE:SKIN
G1 F1500 X113.49 Y121.51 E30.23194
G1 X113.49 Y113.49 E30.49869
G1 X121.51 Y113.49 E30.76543
G1 X121.51 Y121.51 E31.03218
G0 F9000 X121.79 Y121.51
G0 X121.79 Y113.995
G0 X121.349 Y113.995
G1 F1500 X121.004 Y113.65 E31.04841
G0 F9000 X120.438 Y113.65
G1 F1500 X121.349 Y114.561 E31.09126
G0 F9000 X121.349 Y115.126
G1 F1500 X119.872 Y113.65 E31.16071
G0 F9000 X119.307 Y113.65
G1 F1500 X121.349 Y115.692 E31.25676
G0 F9000 X121.349 Y116.258
G1 F1500 X118.741 Y113.65 E31.37943
G0 F9000 X118.175 Y113.65
G1 F1500 X121.349 Y116.823 E31.5287
G0 F9000 X121.349 Y117.389
G1 F1500 X117.61 Y113.65 E31.70457
G0 F9000 X117.044 Y113.65
G1 F1500 X121.349 Y117.955 E31.90707
G0 F9000 X121.349 Y118.52
G1 F1500 X116.478 Y113.65 E32.13616
G0 F9000 X115.913 Y113.65
G1 F1500 X121.349 Y119.086 E32.39185
G0 F9000 X121.349 Y119.652
G1 F1500 X115.347 Y113.65 E32.67417
G0 F9000 X114.781 Y113.65
G1 F1500 X121.349 Y120.218 E32.98311
G0 F9000 X121.349 Y120.783
G1 F1500 X114.216 Y113.65 E33.31862
G0 F9000 X113.649 Y113.649
G1 F1500 X121.349 Y121.349 E33.68081
G0 F9000 X120.783 Y121.349
G1 F1500 X113.649 Y114.215 E34.01637
G0 F9000 X113.649 Y114.781
G1 F1500 X120.218 Y121.349 E34.32533
G0 F9000 X119.652 Y121.349
G1 F1500 X113.649 Y115.346 E34.60769
G0 F9000 X113.649 Y115.912
G1 F1500 X119.086 Y121.349 E34.86343
G0 F9000 X118.52 Y121.349
G1 F1500 X113.649 Y116.478 E35.09255
G0 F9000 X113.649 Y117.043
G1 F1500 X117.955 Y121.349 E35.29509
G0 F9000 X117.389 Y121.349
G1 F1500 X113.649 Y117.609 E35.47101
G0 F9000 X113.649 Y118.175
G1 F1500 X116.823 Y121.349 E35.6203
G0 F9000 X116.258 Y121.349
G1 F1500 X113.649 Y118.74 E35.74302
G0 F9000 X113.649 Y119.306
G1 F1500 X115.692 Y121.349 E35.83912
G0 F9000 X115.126 Y121.349
G1 F1500 X113.649 Y119.872 E35.90859
G0 F9000 X113.649 Y120.437
G1 F1500 X114.561 Y121.349 E35.95149
G0 F9000 X113.995 Y121.349
G1 F1500 X113.649 Y121.003 E35.96777
G0 F9000 X113.3 Y121.003
;MESH:NONMESH
G0 F300 X113.3 Y121.003 Z0.8
G0 F9000 X113.21 Y121.003
G0 X113.282 Y121.718
G0 X121.9 Y121.9
;TIME_ELAPSED:65.005562
;LAYER:3
M106 S255
