; generated by Slic3r 1.3.0 on 2020-07-21 at 20:34:36

; external perimeters extrusion width = 0.44mm (3.56mm^3/s)
; perimeters extrusion width = 0.46mm (7.54mm^3/s)
; infill extrusion width = 0.46mm (10.05mm^3/s)
; solid infill extrusion width = 0.46mm (2.51mm^3/s)
; top infill extrusion width = 0.46mm (1.88mm^3/s)

M107
M104 S205 ; set temperature
G28 ; home all axes
G1 Z5 F5000 ; lift nozzle

; Filament gcode

M109 S205 ; set temperature and wait for it to be reached
G21 ; set units to millimeters
G90 ; use absolute coordinates
M82 ; use absolute distances for extrusion
G92 E0
G1 Z0.400 F7800.000
G1 E-2.00000 F2400.00000
G92 E0
G1 X39.118 Y40.463 F7800.000
G1 E2.00000 F2400.00000
G1 F1800
G1 X40.897 Y38.808 E2.28854
G1 X43.114 Y37.815 E2.57709
G1 X45.000 Y37.572 E2.80288
G1 X55.000 Y37.572 E3.99053
G1 X57.397 Y37.969 E4.27908
G1 X59.537 Y39.118 E4.56762
G1 X61.192 Y40.897 E4.85617
G1 X62.185 Y43.114 E5.14471
G1 X62.428 Y45.000 E5.37050
G1 X62.428 Y55.000 E6.55815
G1 X62.031 Y57.397 E6.84670
G1 X60.882 Y59.537 E7.13524
G1 X59.103 Y61.192 E7.42379
G1 X56.886 Y62.185 E7.71233
G1 X55.000 Y62.428 E7.93812
G1 X45.000 Y62.428 E9.12577
G1 X42.603 Y62.031 E9.41432
G1 X40.463 Y60.882 E9.70286
G1 X38.808 Y59.103 E9.99141
G1 X37.815 Y56.886 E10.27995
G1 X37.572 Y55.000 E10.50574
G1 X37.572 Y45.000 E11.69339
G1 X37.969 Y42.603 E11.98194
G1 X39.090 Y40.516 E12.26336
G1 X39.827 Y40.720 F7800.000
G1 F1800
G1 X41.583 Y39.220 E12.53758
G1 X43.743 Y38.405 E12.81181
G1 X45.000 Y38.286 E12.96177
G1 X55.000 Y38.286 E14.14942
G1 X57.275 Y38.683 E14.42365
G1 X59.280 Y39.827 E14.69787
G1 X60.780 Y41.583 E14.97210
G1 X61.595 Y43.743 E15.24632
G1 X61.714 Y45.000 E15.39629
G1 X61.714 Y55.000 E16.58394
G1 X61.317 Y57.275 E16.85817
G1 X60.173 Y59.280 E17.13239
G1 X58.417 Y60.780 E17.40662
G1 X56.257 Y61.595 E17.68084
G1 X55.000 Y61.714 E17.83081
G1 X45.000 Y61.714 E19.01846
G1 X42.725 Y61.317 E19.29268
G1 X40.720 Y60.173 E19.56691
G1 X39.220 Y58.417 E19.84113
G1 X38.405 Y56.257 E20.11536
G1 X38.286 Y55.000 E20.26532
G1 X38.286 Y45.000 E21.45298
G1 X38.683 Y42.725 E21.72720
G1 X39.797 Y40.772 E21.99430
G1 E19.99430 F2400.00000
G92 E0
G1 X53.172 Y53.172 F7800.000
G1 E2.00000 F2400.00000
G1 F1800
G1 X46.828 Y53.172 E2.75337
G1 X46.828 Y46.828 E3.50674
G1 X53.172 Y46.828 E4.26011
G1 X53.172 Y53.112 E5.00636
G1 X53.886 Y53.886 F7800.000
G1 F1800
G1 X46.114 Y53.886 E5.92936
G1 X46.114 Y46.114 E6.85237
G1 X53.886 Y46.114 E7.77537
G1 X53.886 Y53.826 E8.69125
G1 X54.600 Y54.600 F7800.000
G1 F1800
G1 X45.400 Y54.600 E9.78389
G1 X45.400 Y45.400 E10.87653
G1 X54.600 Y45.400 E11.96917
G1 X54.600 Y54.540 E13.05468
G1 X54.214 Y54.496 F7800.000
G1 E11.05468 F2400.00000
G92 E0
G1 X52.180 Y52.735 F7800.000
G1 E2.00000 F2400.00000
G1 F1800
G1 X52.735 Y52.180 E2.10092
G1 X52.735 Y51.087 E2.24120
G1 X51.087 Y52.735 E2.54050
G1 X49.995 Y52.735 E2.68078
G1 X52.735 Y49.995 E3.17847
G1 X52.735 Y48.903 E3.31875
G1 X48.903 Y52.735 E4.01482
G1 X47.811 Y52.735 E4.15510
G1 X52.735 Y47.811 E5.04956
G1 X52.735 Y47.265 E5.11970
G1 X52.189 Y47.265 E5.18984
G1 X47.265 Y52.189 E6.08429
G1 X47.265 Y51.097 E6.22457
G1 X51.097 Y47.265 E6.92065
G1 X50.005 Y47.265 E7.06092
G1 X47.265 Y50.005 E7.55861
G1 X47.265 Y48.913 E7.69889
G1 X48.913 Y47.265 E7.99820
G1 X47.820 Y47.265 E8.13848
G1 X47.265 Y47.820 E8.23937
M104 S200 ; set temperature
G1 Z0.720 F7800.000
G1 X54.005 Y54.005 F7800.000
G1 F900
G1 X45.995 Y54.005 E8.65788
G1 X45.995 Y45.995 E9.07640
G1 X54.005 Y45.995 E9.49491
G1 X54.005 Y53.945 E9.91028
G1 X54.398 Y54.398 F7800.000
G1 F900
G1 X45.602 Y54.398 E10.36983
G1 X45.602 Y45.602 E10.82937
G1 X54.398 Y45.602 E11.28892
G1 X54.398 Y54.338 E11.74533
G1 X54.780 Y54.780 F7800.000
G1 F900
G1 X45.220 Y54.780 E12.21761
G1 X45.220 Y45.220 E12.68989
G1 X54.780 Y45.220 E13.16217
G1 X54.780 Y54.720 E13.63148
G1 X54.394 Y54.676 F7800.000
G1 X53.765 Y46.540 F7800.000
G1 F1200
G1 X53.460 Y46.235 E13.65408
G1 X52.904 Y46.235 E13.68314
G1 X53.765 Y47.096 E13.74683
G1 X53.765 Y47.652 E13.77588
G1 X52.348 Y46.235 E13.88067
G1 X51.792 Y46.235 E13.90973
G1 X53.765 Y48.208 E14.05560
G1 X53.765 Y48.763 E14.08466
G1 X51.237 Y46.235 E14.27164
G1 X50.681 Y46.235 E14.30069
G1 X53.765 Y49.319 E14.52876
G1 X53.765 Y49.875 E14.55782
G1 X50.125 Y46.235 E14.82698
G1 X49.569 Y46.235 E14.85604
G1 X53.765 Y50.431 E15.16629
G1 X53.765 Y50.986 E15.19535
G1 X49.014 Y46.235 E15.54670
G1 X48.458 Y46.235 E15.57576
G1 X53.765 Y51.542 E15.96820
G1 X53.765 Y52.098 E15.99726
G1 X47.902 Y46.235 E16.43080
G1 X47.346 Y46.235 E16.45986
G1 X53.765 Y52.654 E16.93449
G1 X53.765 Y53.210 E16.96355
G1 X46.790 Y46.235 E17.47927
G1 X46.235 Y46.235 E17.50833
G1 X53.765 Y53.765 E18.06515
G1 X53.210 Y53.765 E18.09421
G1 X46.235 Y46.790 E18.60994
G1 X46.235 Y47.346 E18.63900
G1 X52.654 Y53.765 E19.11363
G1 X52.098 Y53.765 E19.14269
G1 X46.235 Y47.902 E19.57623
G1 X46.235 Y48.458 E19.60529
G1 X51.542 Y53.765 E19.99773
G1 X50.986 Y53.765 E20.02679
G1 X46.235 Y49.014 E20.37814
G1 X46.235 Y49.569 E20.40720
G1 X50.431 Y53.765 E20.71746
G1 X49.875 Y53.765 E20.74652
G1 X46.235 Y50.125 E21.01568
G1 X46.235 Y50.681 E21.04474
G1 X49.319 Y53.765 E21.27281
G1 X48.763 Y53.765 E21.30186
G1 X46.235 Y51.237 E21.48884
G1 X46.235 Y51.792 E21.51790
G1 X48.208 Y53.765 E21.66378
G1 X47.652 Y53.765 E21.69283
G1 X46.235 Y52.348 E21.79762
G1 X46.235 Y52.904 E21.82668
G1 X47.096 Y53.765 E21.89037
G1 X46.540 Y53.765 E21.91943
G1 X46.235 Y53.460 E21.94202
G1 Z1.040 F7800.000
G1 X54.005 Y54.005 F7800.000
G1 F900
G1 X45.995 Y54.005 E22.36054
G1 X45.995 Y45.995 E22.77905
G1 X54.005 Y45.995 E23.19756
G1 X54.005 Y53.945 E23.61294
G1 X54.398 Y54.398 F7800.000
G1 F900
G1 X45.602 Y54.398 E24.07248
G1 X45.602 Y45.602 E24.53203
G1 X54.398 Y45.602 E24.99157
G1 X54.398 Y54.338 E25.44798
G1 X54.780 Y54.780 F7800.000
G1 F900
G1 X45.220 Y54.780 E25.92026
G1 X45.220 Y45.220 E26.39254
G1 X54.780 Y45.220 E26.86482
G1 X54.780 Y54.720 E27.33414
G1 X54.394 Y54.676 F7800.000
G1 X53.460 Y53.765 F7800.000
G1 F1200
G1 X53.765 Y53.460 E27.35673
G1 X53.765 Y52.904 E27.38579
G1 X52.904 Y53.765 E27.44948
G1 X52.348 Y53.765 E27.47854
G1 X53.765 Y52.348 E27.58332
G1 X53.765 Y51.792 E27.61238
G1 X51.792 Y53.765 E27.75826
G1 X51.237 Y53.765 E27.78731
G1 X53.765 Y51.237 E27.97429
G1 X53.765 Y50.681 E28.00335
G1 X50.681 Y53.765 E28.23141
G1 X50.125 Y53.765 E28.26047
G1 X53.765 Y50.125 E28.52963
G1 X53.765 Y49.569 E28.55869
G1 X49.569 Y53.765 E28.86894
G1 X49.014 Y53.765 E28.89800
G1 X53.765 Y49.014 E29.24935
G1 X53.765 Y48.458 E29.27841
G1 X48.458 Y53.765 E29.67085
G1 X47.902 Y53.765 E29.69991
G1 X53.765 Y47.902 E30.13345
G1 X53.765 Y47.346 E30.16251
G1 X47.346 Y53.765 E30.63714
G1 X46.790 Y53.765 E30.66620
G1 X53.765 Y46.790 E31.18193
G1 X53.765 Y46.235 E31.21098
G1 X46.235 Y53.765 E31.76781
G1 X46.235 Y53.210 E31.79686
G1 X53.210 Y46.235 E32.31259
G1 X52.654 Y46.235 E32.34165
G1 X46.235 Y52.654 E32.81628
G1 X46.235 Y52.098 E32.84534
G1 X52.098 Y46.235 E33.27888
G1 X51.542 Y46.235 E33.30794
G1 X46.235 Y51.542 E33.70038
G1 X46.235 Y50.986 E33.72944
G1 X50.986 Y46.235 E34.08079
G1 X50.431 Y46.235 E34.10985
G1 X46.235 Y50.431 E34.42011
G1 X46.235 Y49.875 E34.44917
G1 X49.875 Y46.235 E34.71833
G1 X49.319 Y46.235 E34.74739
G1 X46.235 Y49.319 E34.97546
G1 X46.235 Y48.763 E35.00451
G1 X48.763 Y46.235 E35.19149
G1 X48.208 Y46.235 E35.22055
G1 X46.235 Y48.208 E35.36643
G1 X46.235 Y47.652 E35.39548
G1 X47.652 Y46.235 E35.50027
G1 X47.096 Y46.235 E35.52933
G1 X46.235 Y47.096 E35.59302
G1 X46.235 Y46.540 E35.62208
G1 X46.540 Y46.235 E35.64467
M106 S224.4
G1 Z1.360 F7800.000
G1 X54.005 Y54.005 F7800.000
G1 F900
G1 X45.995 Y54.005 E36.06318
G1 X45.995 Y45.995 E36.48170
G1 X54.005 Y45.995 E36.90021
G1 X54.005 Y53.945 E37.31559
G1 X54.398 Y54.398 F7800.000
G1 F900
G1 X45.602 Y54.398 E37.77513
G1 X45.602 Y45.602 E38.23468
G1 X54.398 Y45.602 E38.69422
G1 X54.398 Y54.338 E39.15063
G1 X54.780 Y54.780 F7800.000
G1 F900
G1 X45.220 Y54.780 E39.62291
G1 X45.220 Y45.220 E40.09519
G1 X54.780 Y45.220 E40.56747
G1 X54.780 Y54.720 E41.03678
G1 X54.394 Y54.676 F7800.000
G1 X53.765 Y46.540 F7800.000
G1 F1200
G1 X53.460 Y46.235 E41.05938
G1 X52.904 Y46.235 E41.08844
G1 X53.765 Y47.096 E41.15213
G1 X53.765 Y47.652 E41.18119
G1 X52.348 Y46.235 E41.28597
G1 X51.792 Y46.235 E41.31503
G1 X53.765 Y48.208 E41.46090
G1 X53.765 Y48.763 E41.48996
G1 X51.237 Y46.235 E41.67693
G1 X50.681 Y46.235 E41.70599
G1 X53.765 Y49.319 E41.93406
G1 X53.765 Y49.875 E41.96312
G1 X50.125 Y46.235 E42.23228
G1 X49.569 Y46.235 E42.26133
G1 X53.765 Y50.431 E42.57159
G1 X53.765 Y50.986 E42.60065
G1 X49.014 Y46.235 E42.95199
G1 X48.458 Y46.235 E42.98105
G1 X53.765 Y51.542 E43.37349
G1 X53.765 Y52.098 E43.40255
G1 X47.902 Y46.235 E43.83609
G1 X47.346 Y46.235 E43.86515
G1 X53.765 Y52.654 E44.33978
G1 X53.765 Y53.210 E44.36883
G1 X46.790 Y46.235 E44.88456
G1 X46.235 Y46.235 E44.91362
G1 X53.765 Y53.765 E45.47043
G1 X53.210 Y53.765 E45.49949
G1 X46.235 Y46.790 E46.01522
G1 X46.235 Y47.346 E46.04428
G1 X52.654 Y53.765 E46.51891
G1 X52.098 Y53.765 E46.54797
G1 X46.235 Y47.902 E46.98150
G1 X46.235 Y48.458 E47.01056
G1 X51.542 Y53.765 E47.40300
G1 X50.986 Y53.765 E47.43206
G1 X46.235 Y49.014 E47.78341
G1 X46.235 Y49.569 E47.81247
G1 X50.431 Y53.765 E48.12272
G1 X49.875 Y53.765 E48.15178
G1 X46.235 Y50.125 E48.42094
G1 X46.235 Y50.681 E48.45000
G1 X49.319 Y53.765 E48.67807
G1 X48.763 Y53.765 E48.70713
G1 X46.235 Y51.237 E48.89410
G1 X46.235 Y51.792 E48.92316
G1 X48.208 Y53.765 E49.06904
G1 X47.652 Y53.765 E49.09809
G1 X46.235 Y52.348 E49.20288
G1 X46.235 Y52.904 E49.23194
G1 X47.096 Y53.765 E49.29563
G1 X46.540 Y53.765 E49.32469
G1 X46.235 Y53.460 E49.34728
G1 Z1.680 F7800.000
G1 X54.005 Y54.005 F7800.000
G1 F900
G1 X45.995 Y54.005 E49.76579
G1 X45.995 Y45.995 E50.18431
G1 X54.005 Y45.995 E50.60282
G1 X54.005 Y53.945 E51.01820
G1 X54.398 Y54.398 F7800.000
G1 F900
G1 X45.602 Y54.398 E51.47774
G1 X45.602 Y45.602 E51.93729
G1 X54.398 Y45.602 E52.39683
G1 X54.398 Y54.338 E52.85324
G1 X54.780 Y54.780 F7800.000
G1 F900
G1 X45.220 Y54.780 E53.32552
G1 X45.220 Y45.220 E53.79780
G1 X54.780 Y45.220 E54.27008
G1 X54.780 Y54.720 E54.73939
G1 X54.394 Y54.676 F7800.000
G1 X53.460 Y53.765 F7800.000
G1 F1200
G1 X53.765 Y53.460 E54.76199
G1 X53.765 Y52.904 E54.79105
G1 X52.904 Y53.765 E54.85474
G1 X52.348 Y53.765 E54.88379
G1 X53.765 Y52.348 E54.98858
G1 X53.765 Y51.792 E55.01764
G1 X51.792 Y53.765 E55.16351
G1 X51.237 Y53.765 E55.19257
G1 X53.765 Y51.237 E55.37954
G1 X53.765 Y50.681 E55.40860
G1 X50.681 Y53.765 E55.63667
G1 X50.125 Y53.765 E55.66572
G1 X53.765 Y50.125 E55.93488
G1 X53.765 Y49.569 E55.96394
G1 X49.569 Y53.765 E56.27420
G1 X49.014 Y53.765 E56.30325
G1 X53.765 Y49.014 E56.65460
G1 X53.765 Y48.458 E56.68366
G1 X48.458 Y53.765 E57.07610
G1 X47.902 Y53.765 E57.10516
G1 X53.765 Y47.902 E57.53870
G1 X53.765 Y47.346 E57.56775
G1 X47.346 Y53.765 E58.04238
G1 X46.790 Y53.765 E58.07144
G1 X53.765 Y46.790 E58.58717
G1 X53.765 Y46.235 E58.61622
G1 X46.235 Y53.765 E59.17304
G1 X46.235 Y53.210 E59.20210
G1 X53.210 Y46.235 E59.71783
G1 X52.654 Y46.235 E59.74688
G1 X46.235 Y52.654 E60.22151
G1 X46.235 Y52.098 E60.25057
G1 X52.098 Y46.235 E60.68411
G1 X51.542 Y46.235 E60.71317
G1 X46.235 Y51.542 E61.10561
G1 X46.235 Y50.986 E61.13467
G1 X50.986 Y46.235 E61.48602
G1 X50.431 Y46.235 E61.51508
G1 X46.235 Y50.431 E61.82533
G1 X46.235 Y49.875 E61.85439
G1 X49.875 Y46.235 E62.12355
G1 X49.319 Y46.235 E62.15261
G1 X46.235 Y49.319 E62.38068
G1 X46.235 Y48.763 E62.40973
G1 X48.763 Y46.235 E62.59671
G1 X48.208 Y46.235 E62.62576
G1 X46.235 Y48.208 E62.77164
G1 X46.235 Y47.652 E62.80070
G1 X47.652 Y46.235 E62.90549
G1 X47.096 Y46.235 E62.93454
G1 X46.235 Y47.096 E62.99823
G1 X46.235 Y46.540 E63.02729
G1 X46.540 Y46.235 E63.04989
G1 Z2.000 F7800.000
G1 X54.005 Y54.005 F7800.000
G1 F900
G1 X45.995 Y54.005 E63.46840
G1 X45.995 Y45.995 E63.88691
G1 X54.005 Y45.995 E64.30542
G1 X54.005 Y53.945 E64.72080
G1 X54.398 Y54.398 F7800.000
G1 F900
G1 X45.602 Y54.398 E65.18035
G1 X45.602 Y45.602 E65.63989
G1 X54.398 Y45.602 E66.09944
G1 X54.398 Y54.338 E66.55585
G1 X54.780 Y54.780 F7800.000
G1 F900
G1 X45.220 Y54.780 E67.02813
G1 X45.220 Y45.220 E67.50041
G1 X54.780 Y45.220 E67.97268
G1 X54.780 Y54.720 E68.44200
G1 X54.394 Y54.676 F7800.000
G1 X53.765 Y46.540 F7800.000
G1 F1200
G1 X53.460 Y46.235 E68.46460
G1 X52.904 Y46.235 E68.49365
G1 X53.765 Y47.096 E68.55734
G1 X53.765 Y47.652 E68.58640
G1 X52.348 Y46.235 E68.69118
G1 X51.792 Y46.235 E68.72024
G1 X53.765 Y48.208 E68.86612
G1 X53.765 Y48.763 E68.89518
G1 X51.237 Y46.235 E69.08215
G1 X50.681 Y46.235 E69.11121
G1 X53.765 Y49.319 E69.33927
G1 X53.765 Y49.875 E69.36833
G1 X50.125 Y46.235 E69.63749
G1 X49.569 Y46.235 E69.66655
G1 X53.765 Y50.431 E69.97680
G1 X53.765 Y50.986 E70.00586
G1 X49.014 Y46.235 E70.35721
G1 X48.458 Y46.235 E70.38627
G1 X53.765 Y51.542 E70.77871
G1 X53.765 Y52.098 E70.80777
G1 X47.902 Y46.235 E71.24130
G1 X47.346 Y46.235 E71.27036
G1 X53.765 Y52.654 E71.74499
G1 X53.765 Y53.210 E71.77405
G1 X46.790 Y46.235 E72.28977
G1 X46.235 Y46.235 E72.31883
G1 X53.765 Y53.765 E72.87565
G1 X53.210 Y53.765 E72.90471
G1 X46.235 Y46.790 E73.42043
G1 X46.235 Y47.346 E73.44949
G1 X52.654 Y53.765 E73.92412
G1 X52.098 Y53.765 E73.95318
G1 X46.235 Y47.902 E74.38672
G1 X46.235 Y48.458 E74.41578
G1 X51.542 Y53.765 E74.80822
G1 X50.986 Y53.765 E74.83728
G1 X46.235 Y49.014 E75.18863
G1 X46.235 Y49.569 E75.21768
G1 X50.431 Y53.765 E75.52794
G1 X49.875 Y53.765 E75.55700
G1 X46.235 Y50.125 E75.82616
G1 X46.235 Y50.681 E75.85522
G1 X49.319 Y53.765 E76.08328
G1 X48.763 Y53.765 E76.11234
G1 X46.235 Y51.237 E76.29931
G1 X46.235 Y51.792 E76.32837
G1 X48.208 Y53.765 E76.47425
G1 X47.652 Y53.765 E76.50331
G1 X46.235 Y52.348 E76.60809
G1 X46.235 Y52.904 E76.63715
G1 X47.096 Y53.765 E76.70084
G1 X46.540 Y53.765 E76.72990
G1 X46.235 Y53.460 E76.75250
G1 Z2.320 F7800.000
G1 X54.005 Y54.005 F7800.000
G1 F900
G1 X45.995 Y54.005 E77.17101
G1 X45.995 Y45.995 E77.58952
G1 X54.005 Y45.995 E78.00803
G1 X54.005 Y53.945 E78.42341
G1 X54.398 Y54.398 F7800.000
G1 F900
G1 X45.602 Y54.398 E78.88296
G1 X45.602 Y45.602 E79.34250
G1 X54.398 Y45.602 E79.80205
G1 X54.398 Y54.338 E80.25846
G1 X54.780 Y54.780 F7800.000
G1 F900
G1 X45.220 Y54.780 E80.73074
G1 X45.220 Y45.220 E81.20301
G1 X54.780 Y45.220 E81.67529
G1 X54.780 Y54.720 E82.14461
G1 X54.394 Y54.676 F7800.000
G1 X53.460 Y53.765 F7800.000
G1 F1200
G1 X53.765 Y53.460 E82.16720
G1 X53.765 Y52.904 E82.19626
G1 X52.904 Y53.765 E82.25995
G1 X52.348 Y53.765 E82.28901
G1 X53.765 Y52.348 E82.39379
G1 X53.765 Y51.792 E82.42285
G1 X51.792 Y53.765 E82.56873
G1 X51.237 Y53.765 E82.59779
G1 X53.765 Y51.237 E82.78476
G1 X53.765 Y50.681 E82.81382
G1 X50.681 Y53.765 E83.04188
G1 X50.125 Y53.765 E83.07094
G1 X53.765 Y50.125 E83.34010
G1 X53.765 Y49.569 E83.36916
G1 X49.569 Y53.765 E83.67941
G1 X49.014 Y53.765 E83.70847
G1 X53.765 Y49.014 E84.05982
G1 X53.765 Y48.458 E84.08887
G1 X48.458 Y53.765 E84.48132
G1 X47.902 Y53.765 E84.51037
G1 X53.765 Y47.902 E84.94391
G1 X53.765 Y47.346 E84.97297
G1 X47.346 Y53.765 E85.44760
G1 X46.790 Y53.765 E85.47666
G1 X53.765 Y46.790 E85.99238
G1 X53.765 Y46.235 E86.02144
G1 X46.235 Y53.765 E86.57826
G1 X46.235 Y53.210 E86.60732
G1 X53.210 Y46.235 E87.12304
G1 X52.654 Y46.235 E87.15210
G1 X46.235 Y52.654 E87.62673
G1 X46.235 Y52.098 E87.65579
G1 X52.098 Y46.235 E88.08933
G1 X51.542 Y46.235 E88.11838
G1 X46.235 Y51.542 E88.51083
G1 X46.235 Y50.986 E88.53988
G1 X50.986 Y46.235 E88.89123
G1 X50.431 Y46.235 E88.92029
G1 X46.235 Y50.431 E89.23055
G1 X46.235 Y49.875 E89.25960
G1 X49.875 Y46.235 E89.52877
G1 X49.319 Y46.235 E89.55782
G1 X46.235 Y49.319 E89.78589
G1 X46.235 Y48.763 E89.81495
G1 X48.763 Y46.235 E90.00192
G1 X48.208 Y46.235 E90.03098
G1 X46.235 Y48.208 E90.17686
G1 X46.235 Y47.652 E90.20592
G1 X47.652 Y46.235 E90.31070
G1 X47.096 Y46.235 E90.33976
G1 X46.235 Y47.096 E90.40345
G1 X46.235 Y46.540 E90.43251
G1 X46.540 Y46.235 E90.45510
G1 Z2.640 F7800.000
G1 X54.005 Y54.005 F7800.000
G1 F900
G1 X45.995 Y54.005 E90.87362
G1 X45.995 Y45.995 E91.29213
G1 X54.005 Y45.995 E91.71064
