; G-Code generated by Simplify3D(R) Version 4.1.2
; Jul 21, 2020 at 5:19:11 PM
; Settings Summary
;   processName,Process1
;   applyToModels,10x10x10 cube
;   profileName,Default
;   profileVersion,2017-03-01 08:00:00
;   baseProfile,
;   printMaterial,PLA
;   printQuality,Medium
;   printExtruders,
;   extruderName,Primary Extruder
;   extruderToolheadNumber,0
;   extruderDiameter,0.35
;   extruderAutoWidth,0
;   extruderWidth,0.4
;   extrusionMultiplier,0.9
;   extruderUseRetract,1
;   extruderRetractionDistance,1
;   extruderExtraRestartDistance,0
;   extruderRetractionZLift,0
;   extruderRetractionSpeed,1800
;   extruderUseCoasting,0
;   extruderCoastingDistance,0.2
;   extruderUseWipe,0
;   extruderWipeDistance,5
;   primaryExtruder,0
;   layerHeight,0.2
;   topSolidLayers,3
;   bottomSolidLayers,3
;   perimeterOutlines,2
;   printPerimetersInsideOut,1
;   startPointOption,2
;   startPointOriginX,0
;   startPointOriginY,0
;   sequentialIslands,0
;   spiralVaseMode,0
;   firstLayerHeightPercentage,90
;   firstLayerWidthPercentage,100
;   firstLayerUnderspeed,0.5
;   useRaft,0
;   raftExtruder,0
;   raftTopLayers,3
;   raftBaseLayers,2
;   raftOffset,3
;   raftSeparationDistance,0.14
;   raftTopInfill,100
;   aboveRaftSpeedMultiplier,0.3
;   useSkirt,1
;   skirtExtruder,0
;   skirtLayers,1
;   skirtOutlines,2
;   skirtOffset,4
;   usePrimePillar,0
;   primePillarExtruder,999
;   primePillarWidth,12
;   primePillarLocation,7
;   primePillarSpeedMultiplier,1
;   useOozeShield,0
;   oozeShieldExtruder,999
;   oozeShieldOffset,2
;   oozeShieldOutlines,1
;   oozeShieldSidewallShape,1
;   oozeShieldSidewallAngle,30
;   oozeShieldSpeedMultiplier,1
;   infillExtruder,0
;   internalInfillPattern,Rectilinear
;   externalInfillPattern,Rectilinear
;   infillPercentage,20
;   outlineOverlapPercentage,15
;   infillExtrusionWidthPercentage,100
;   minInfillLength,5
;   infillLayerInterval,1
;   internalInfillAngles,45,-45
;   overlapInternalInfillAngles,0
;   externalInfillAngles,45,-45
;   generateSupport,0
;   supportExtruder,0
;   supportInfillPercentage,30
;   supportExtraInflation,0
;   supportBaseLayers,0
;   denseSupportExtruder,0
;   denseSupportLayers,0
;   denseSupportInfillPercentage,70
;   supportLayerInterval,1
;   supportHorizontalPartOffset,0.3
;   supportUpperSeparationLayers,1
;   supportLowerSeparationLayers,1
;   supportType,0
;   supportGridSpacing,4
;   maxOverhangAngle,45
;   supportAngles,0
;   temperatureName,Primary Extruder
;   temperatureNumber,0
;   temperatureSetpointCount,1
;   temperatureSetpointLayers,1
;   temperatureSetpointTemperatures,190
;   temperatureStabilizeAtStartup,1
;   temperatureHeatedBed,0
;   fanLayers,1,2
;   fanSpeeds,0,100
;   blipFanToFullPower,0
;   adjustSpeedForCooling,1
;   minSpeedLayerTime,15
;   minCoolingSpeedSlowdown,20
;   increaseFanForCooling,0
;   minFanLayerTime,45
;   maxCoolingFanSpeed,100
;   increaseFanForBridging,0
;   bridgingFanSpeed,100
;   use5D,1
;   relativeEdistances,0
;   allowEaxisZeroing,1
;   independentExtruderAxes,0
;   includeM10123,0
;   stickySupport,1
;   applyToolheadOffsets,0
;   gcodeXoffset,0
;   gcodeYoffset,0
;   gcodeZoffset,0
;   overrideMachineDefinition,0
;   machineTypeOverride,0
;   strokeXoverride,200
;   strokeYoverride,200
;   strokeZoverride,200
;   originOffsetXoverride,0
;   originOffsetYoverride,0
;   originOffsetZoverride,0
;   homeXdirOverride,-1
;   homeYdirOverride,-1
;   homeZdirOverride,-1
;   flipXoverride,1
;   flipYoverride,-1
;   flipZoverride,1
;   toolheadOffsets,0,0|0,0|0,0|0,0|0,0|0,0
;   overrideFirmwareConfiguration,0
;   firmwareTypeOverride,RepRap (Marlin/Repetier/Sprinter)
;   GPXconfigOverride,r2
;   baudRateOverride,115200
;   overridePrinterModels,0
;   printerModelsOverride
;   startingGcode,G28 ; home all axes
;   layerChangeGcode,
;   retractionGcode,
;   toolChangeGcode,
;   endingGcode,M104 S0 ; turn off extruder,M140 S0 ; turn off bed,M84 ; disable motors
;   exportFileFormat,gcode
;   celebration,0
;   celebrationSong,Random Song
;   postProcessing,
;   defaultSpeed,3600
;   outlineUnderspeed,0.5
;   solidInfillUnderspeed,0.8
;   supportUnderspeed,0.8
;   rapidXYspeed,4800
;   rapidZspeed,1000
;   minBridgingArea,50
;   bridgingExtraInflation,0
;   bridgingExtrusionMultiplier,1
;   bridgingSpeedMultiplier,1
;   useFixedBridgingAngle,0
;   fixedBridgingAngle,0
;   applyBridgingToPerimeters,0
;   filamentDiameters,1.75|1.75|1.75|1.75|1.75|1.75
;   filamentPricesPerKg,46|46|46|46|46|46
;   filamentDensities,1.25|1.25|1.25|1.25|1.25|1.25
;   useMinPrintHeight,0
;   minPrintHeight,0
;   useMaxPrintHeight,0
;   maxPrintHeight,0
;   useDiaphragm,0
;   diaphragmLayerInterval,20
;   robustSlicing,1
;   mergeAllIntoSolid,0
;   onlyRetractWhenCrossingOutline,1
;   retractBetweenLayers,1
;   useRetractionMinTravel,0
;   retractionMinTravel,3
;   retractWhileWiping,0
;   onlyWipeOutlines,1
;   avoidCrossingOutline,0
;   maxMovementDetourFactor,3
;   toolChangeRetractionDistance,12
;   toolChangeExtraRestartDistance,-0.5
;   toolChangeRetractionSpeed,600
;   externalThinWallType,0
;   internalThinWallType,2
;   thinWallAllowedOverlapPercentage,10
;   singleExtrusionMinLength,1
;   singleExtrusionMinPrintingWidthPercentage,50
;   singleExtrusionMaxPrintingWidthPercentage,200
;   singleExtrusionEndpointExtension,0.2
;   horizontalSizeCompensation,0
G90
M82
M106 S0
M104 S190 T0
M109 S190 T0
G28 ; home all axes
; process Process1
; layer 1, Z = 0.180
T0
G92 E0.0000
G1 E-1.0000 F1800
; feature skirt
; tool H0.180 W0.400
G1 Z0.180 F1000
G1 X105.400 Y108.095 F4800
G1 E0.0000 F1800
G92 E0.0000
G1 X108.095 Y105.400 E0.1027 F1399
G1 X121.905 Y105.400 E0.4747
G1 X124.600 Y108.095 E0.5774
G1 X124.600 Y121.905 E0.9495
G1 X121.905 Y124.600 E1.0521
G1 X108.095 Y124.600 E1.4242
G1 X105.400 Y121.905 E1.5269
G1 X105.400 Y108.095 E1.8989
G92 E0.0000
G1 E-1.0000 F1800
G1 X105.800 Y108.260 F4800
G1 E0.0000 F1800
G92 E0.0000
G1 X108.260 Y105.800 E0.0937 F1399
G1 X121.740 Y105.800 E0.4569
G1 X124.200 Y108.260 E0.5506
G1 X124.200 Y121.740 E0.9138
G1 X121.740 Y124.200 E1.0075
G1 X108.260 Y124.200 E1.3706
G1 X105.800 Y121.740 E1.4644
G1 X105.800 Y108.260 E1.8275
G92 E0.0000
G1 E-1.0000 F1800
; feature inner perimeter
G1 X110.600 Y110.600 F4800
G1 E0.0000 F1800
G92 E0.0000
G1 X119.400 Y110.600 E0.2371 F1049
G1 X119.400 Y119.400 E0.4742
G1 X110.600 Y119.400 E0.7112
G1 X110.600 Y110.600 E0.9483
; feature outer perimeter
G1 X110.200 Y110.200 F4800
G92 E0.0000
G1 X119.800 Y110.200 E0.2586 F700
G1 X119.800 Y119.800 E0.5173
G1 X110.200 Y119.800 E0.7759
G1 X110.200 Y110.200 E1.0345
; feature solid layer
G1 X118.860 Y110.940 F4800
G92 E0.0000
G1 X119.060 Y111.140 E0.0076 F1119
G1 X119.060 Y111.706 E0.0229
G1 X118.294 Y110.940 E0.0521
G1 X117.728 Y110.940 E0.0673
G1 X119.060 Y112.272 E0.1180
G1 X119.060 Y112.837 E0.1333
G1 X117.163 Y110.940 E0.2056
G1 X116.597 Y110.940 E0.2208
G1 X119.060 Y113.403 E0.3147
G1 X119.060 Y113.969 E0.3299
G1 X116.031 Y110.940 E0.4453
G1 X115.465 Y110.940 E0.4605
G1 X119.060 Y114.535 E0.5975
G1 X119.060 Y115.100 E0.6127
G1 X114.900 Y110.940 E0.7712
G1 X114.334 Y110.940 E0.7865
G1 X119.060 Y115.666 E0.9665
G1 X119.060 Y116.232 E0.9818
G1 X113.768 Y110.940 E1.1834
G1 X113.203 Y110.940 E1.1986
G1 X119.060 Y116.797 E1.4218
G1 X119.060 Y117.363 E1.4370
G1 X112.637 Y110.940 E1.6817
G1 X112.071 Y110.940 E1.6970
G1 X119.060 Y117.929 E1.9632
G1 X119.060 Y118.494 E1.9785
G1 X111.506 Y110.940 E2.2663
G1 X110.940 Y110.940 E2.2815
G1 X119.060 Y119.060 E2.5909
G1 X118.494 Y119.060 E2.6061
G1 X110.940 Y111.506 E2.8940
G1 X110.940 Y112.071 E2.9092
G1 X117.929 Y119.060 E3.1755
G1 X117.363 Y119.060 E3.1907
G1 X110.940 Y112.637 E3.4354
G1 X110.940 Y113.203 E3.4507
G1 X116.797 Y119.060 E3.6738
G1 X116.232 Y119.060 E3.6891
G1 X110.940 Y113.768 E3.8907
G1 X110.940 Y114.334 E3.9059
G1 X115.666 Y119.060 E4.0860
G1 X115.100 Y119.060 E4.1012
G1 X110.940 Y114.900 E4.2597
G1 X110.940 Y115.465 E4.2750
G1 X114.535 Y119.060 E4.4119
G1 X113.969 Y119.060 E4.4271
G1 X110.940 Y116.031 E4.5425
G1 X110.940 Y116.597 E4.5578
G1 X113.403 Y119.060 E4.6516
G1 X112.837 Y119.060 E4.6669
G1 X110.940 Y117.163 E4.7392
G1 X110.940 Y117.728 E4.7544
G1 X112.272 Y119.060 E4.8051
G1 X111.706 Y119.060 E4.8204
G1 X110.940 Y118.294 E4.8496
G1 X110.940 Y118.860 E4.8648
G1 X111.140 Y119.060 E4.8724
G92 E0.0000
G1 E-1.0000 F1800
; layer 2, Z = 0.380
M106 S255
; feature inner perimeter
; tool H0.200 W0.400
G1 Z0.380 F1000
G1 X110.600 Y119.400 F4800
G1 E0.0000 F1800
G92 E0.0000
G1 X110.600 Y110.600 E0.2634 F1049
G1 X119.400 Y110.600 E0.5268
G1 X119.400 Y119.400 E0.7903
G1 X110.600 Y119.400 E1.0537
; feature outer perimeter
G1 X110.200 Y119.800 F4800
G92 E0.0000
G1 X110.200 Y110.200 E0.2874 F700
G1 X119.800 Y110.200 E0.5747
G1 X119.800 Y119.800 E0.8621
G1 X110.200 Y119.800 E1.1495
; feature solid layer
G1 X110.940 Y111.140 F4800
G92 E0.0000
G1 X111.140 Y110.940 E0.0085 F1119
G1 X111.706 Y110.940 E0.0254
G1 X110.940 Y111.706 E0.0579
G1 X110.940 Y112.272 E0.0748
G1 X112.272 Y110.940 E0.1312
G1 X112.837 Y110.940 E0.1481
G1 X110.940 Y112.837 E0.2284
G1 X110.940 Y113.403 E0.2454
G1 X113.403 Y110.940 E0.3496
G1 X113.969 Y110.940 E0.3666
G1 X110.940 Y113.969 E0.4948
G1 X110.940 Y114.535 E0.5117
G1 X114.535 Y110.940 E0.6639
G1 X115.100 Y110.940 E0.6808
G1 X110.940 Y115.100 E0.8569
G1 X110.940 Y115.666 E0.8739
G1 X115.666 Y110.940 E1.0739
G1 X116.232 Y110.940 E1.0909
G1 X110.940 Y116.232 E1.3149
G1 X110.940 Y116.797 E1.3318
G1 X116.797 Y110.940 E1.5798
G1 X117.363 Y110.940 E1.5967
G1 X110.940 Y117.363 E1.8686
G1 X110.940 Y117.929 E1.8855
G1 X117.929 Y110.940 E2.1814
G1 X118.494 Y110.940 E2.1983
G1 X110.940 Y118.494 E2.5181
G1 X110.940 Y119.060 E2.5351
G1 X119.060 Y110.940 E2.8788
G1 X119.060 Y111.506 E2.8957
G1 X111.506 Y119.060 E3.2155
G1 X112.071 Y119.060 E3.2325
G1 X119.060 Y112.071 E3.5283
G1 X119.060 Y112.637 E3.5453
G1 X112.637 Y119.060 E3.8172
G1 X113.203 Y119.060 E3.8341
G1 X119.060 Y113.203 E4.0820
G1 X119.060 Y113.768 E4.0990
G1 X113.768 Y119.060 E4.3230
G1 X114.334 Y119.060 E4.3399
G1 X119.060 Y114.334 E4.5400
G1 X119.060 Y114.900 E4.5569
G1 X114.900 Y119.060 E4.7330
G1 X115.466 Y119.060 E4.7500
G1 X119.060 Y115.466 E4.9021
G1 X119.060 Y116.031 E4.9191
G1 X116.031 Y119.060 E5.0473
G1 X116.597 Y119.060 E5.0642
G1 X119.060 Y116.597 E5.1685
G1 X119.060 Y117.163 E5.1854
G1 X117.163 Y119.060 E5.2657
G1 X117.728 Y119.060 E5.2827
G1 X119.060 Y117.728 E5.3391
G1 X119.060 Y118.294 E5.3560
G1 X118.294 Y119.060 E5.3884
G1 X118.860 Y119.060 E5.4053
G1 X119.060 Y118.860 E5.4138
G92 E0.0000
G1 E-1.0000 F1800
; layer 3, Z = 0.580
; feature inner perimeter
G1 Z0.580 F1000
G1 X119.400 Y119.400 F4800
G1 E0.0000 F1800
G92 E0.0000
G1 X110.600 Y119.400 E0.2634 F1049
G1 X110.600 Y110.600 E0.5268
G1 X119.400 Y110.600 E0.7903
G1 X119.400 Y119.400 E1.0537
; feature outer perimeter
G1 X119.800 Y119.800 F4800
G92 E0.0000
G1 X110.200 Y119.800 E0.2874 F700
G1 X110.200 Y110.200 E0.5747
G1 X119.800 Y110.200 E0.8621
G1 X119.800 Y119.800 E1.1495
; feature solid layer
G1 X111.140 Y119.060 F4800
G92 E0.0000
G1 X110.940 Y118.860 E0.0085 F1119
G1 X110.940 Y118.294 E0.0254
G1 X111.706 Y119.060 E0.0578
G1 X112.272 Y119.060 E0.0748
G1 X110.940 Y117.728 E0.1312
G1 X110.940 Y117.163 E0.1481
G1 X112.837 Y119.060 E0.2284
G1 X113.403 Y119.060 E0.2454
G1 X110.940 Y116.597 E0.3496
G1 X110.940 Y116.031 E0.3666
G1 X113.969 Y119.060 E0.4948
G1 X114.535 Y119.060 E0.5117
G1 X110.940 Y115.465 E0.6639
G1 X110.940 Y114.900 E0.6808
G1 X115.100 Y119.060 E0.8569
G1 X115.666 Y119.060 E0.8739
G1 X110.940 Y114.334 E1.0739
G1 X110.940 Y113.768 E1.0909
G1 X116.232 Y119.060 E1.3149
G1 X116.797 Y119.060 E1.3318
G1 X110.940 Y113.203 E1.5798
G1 X110.940 Y112.637 E1.5967
G1 X117.363 Y119.060 E1.8686
G1 X117.929 Y119.060 E1.8855
G1 X110.940 Y112.071 E2.1814
G1 X110.940 Y111.506 E2.1983
G1 X118.494 Y119.060 E2.5181
G1 X119.060 Y119.060 E2.5350
G1 X110.940 Y110.940 E2.8788
G1 X111.506 Y110.940 E2.8957
G1 X119.060 Y118.494 E3.2155
G1 X119.060 Y117.929 E3.2325
G1 X112.071 Y110.940 E3.5283
G1 X112.637 Y110.940 E3.5452
G1 X119.060 Y117.363 E3.8171
G1 X119.060 Y116.797 E3.8341
G1 X113.203 Y110.940 E4.0820
G1 X113.768 Y110.940 E4.0990
G1 X119.060 Y116.232 E4.3230
G1 X119.060 Y115.666 E4.3399
G1 X114.334 Y110.940 E4.5400
G1 X114.900 Y110.940 E4.5569
G1 X119.060 Y115.100 E4.7330
G1 X119.060 Y114.535 E4.7500
G1 X115.465 Y110.940 E4.9021
G1 X116.031 Y110.940 E4.9191
G1 X119.060 Y113.969 E5.0473
G1 X119.060 Y113.403 E5.0642
G1 X116.597 Y110.940 E5.1685
G1 X117.163 Y110.940 E5.1854
G1 X119.060 Y112.837 E5.2657
G1 X119.060 Y112.272 E5.2827
G1 X117.728 Y110.940 E5.3391
G1 X118.294 Y110.940 E5.3560
G1 X119.060 Y111.706 E5.3884
G1 X119.060 Y111.140 E5.4053
G1 X118.860 Y110.940 E5.4138
G92 E0.0000
G1 E-1.0000 F1800
; layer 4, Z = 0.780
; feature inner perimeter
G1 Z0.780 F1000
G1 X119.400 Y110.600 F4800
G1 E0.0000 F1800
G92 E0.0000
G1 X119.400 Y119.400 E0.2634 F540
G1 X110.600 Y119.400 E0.5268
G1 X110.600 Y110.600 E0.7903
G1 X119.400 Y110.600 E1.0537
; feature outer perimeter
G1 X119.800 Y110.200 F4800
G92 E0.0000
G1 X119.800 Y119.800 E0.2874 F360
G1 X110.200 Y119.800 E0.5747
G1 X110.200 Y110.200 E0.8621
G1 X119.800 Y110.200 E1.1495
; feature infill
G1 X119.060 Y116.597 F4800
G92 E0.0000
G1 X116.597 Y119.060 E0.1043 F720
G1 X113.768 Y119.060 E0.1889
G1 X119.060 Y113.768 E0.4129
G1 X119.060 Y110.940 E0.4976
G1 X110.940 Y119.060 E0.8414
G1 X110.940 Y116.232 E0.9260
G1 X116.232 Y110.940 E1.1500
G1 X113.403 Y110.940 E1.2347
G1 X110.940 Y113.403 E1.3390
G92 E0.0000
G1 E-1.0000 F1800
; layer 5, Z = 0.980
; feature inner perimeter
G1 Z0.980 F1000
G1 X110.600 Y110.600 F4800
G1 E0.0000 F1800
G92 E0.0000
G1 X119.400 Y110.600 E0.2634 F540
G1 X119.400 Y119.400 E0.5268
G1 X110.600 Y119.400 E0.7903
G1 X110.600 Y110.600 E1.0537
; feature outer perimeter
G1 X110.200 Y110.200 F4800
G92 E0.0000
G1 X119.800 Y110.200 E0.2874 F360
G1 X119.800 Y119.800 E0.5747
G1 X110.200 Y119.800 E0.8621
G1 X110.200 Y110.200 E1.1495
; feature infill
G1 X116.597 Y110.940 F4800
G92 E0.0000
G1 X119.060 Y113.403 E0.1043 F720
G1 X119.060 Y116.232 E0.1889
G1 X113.768 Y110.940 E0.4129
G1 X110.940 Y110.940 E0.4976
G1 X119.060 Y119.060 E0.8414
G1 X116.232 Y119.060 E0.9260
G1 X110.940 Y113.768 E1.1500
G1 X110.940 Y116.597 E1.2347
G1 X113.403 Y119.060 E1.3390
G92 E0.0000
G1 E-1.0000 F1800
; layer 6, Z = 1.180
; feature inner perimeter
G1 Z1.180 F1000
G1 X110.600 Y119.400 F4800
G1 E0.0000 F1800
G92 E0.0000
G1 X110.600 Y110.600 E0.2634 F540
G1 X119.400 Y110.600 E0.5268
G1 X119.400 Y119.400 E0.7903
G1 X110.600 Y119.400 E1.0537
; feature outer perimeter
G1 X110.200 Y119.800 F4800
G92 E0.0000
G1 X110.200 Y110.200 E0.2874 F360
G1 X119.800 Y110.200 E0.5747
G1 X119.800 Y119.800 E0.8621
G1 X110.200 Y119.800 E1.1495
; feature infill
G1 X110.940 Y113.403 F4800
G92 E0.0000
G1 X113.403 Y110.940 E0.1043 F720
G1 X116.232 Y110.940 E0.1889
G1 X110.940 Y116.232 E0.4130
G1 X110.940 Y119.060 E0.4976
G1 X119.060 Y110.940 E0.8414
G1 X119.060 Y113.768 E0.9260
G1 X113.768 Y119.060 E1.1500
G1 X116.597 Y119.060 E1.2347
G1 X119.060 Y116.597 E1.3390
G92 E0.0000
G1 E-1.0000 F1800
; layer 7, Z = 1.380
; feature inner perimeter
G1 Z1.380 F1000
G1 X119.400 Y119.400 F4800
G1 E0.0000 F1800
G92 E0.0000
G1 X110.600 Y119.400 E0.2634 F540
G1 X110.600 Y110.600 E0.5268
G1 X119.400 Y110.600 E0.7903
G1 X119.400 Y119.400 E1.0537
; feature outer perimeter
G1 X119.800 Y119.800 F4800
G92 E0.0000
G1 X110.200 Y119.800 E0.2874 F360
G1 X110.200 Y110.200 E0.5747
G1 X119.800 Y110.200 E0.8621
G1 X119.800 Y119.800 E1.1495
; feature infill
G1 X113.403 Y119.060 F4800
G92 E0.0000
G1 X110.940 Y116.597 E0.1043 F720
G1 X110.940 Y113.768 E0.1889
G1 X116.232 Y119.060 E0.4129
G1 X119.060 Y119.060 E0.4976
G1 X110.940 Y110.940 E0.8414
G1 X113.768 Y110.940 E0.9260
G1 X119.060 Y116.232 E1.1500
G1 X119.060 Y113.403 E1.2347
G1 X116.597 Y110.940 E1.3390
G92 E0.0000
G1 E-1.0000 F1800
; layer 8, Z = 1.580
; feature inner perimeter
G1 Z1.580 F1000
G1 X119.400 Y110.600 F4800
G1 E0.0000 F1800
G92 E0.0000
G1 X119.400 Y119.400 E0.2634 F540
